avivtamir8/Trajectory/ex_no_fov_3000.csv
Time,Missile_X,Missile_Y,Missile_Z,Missile_Vx,Missile_Vy,Missile_Vz,Missile_phi,Missile_theta,Missile_psi,Missile_p,Missile_q,Missile_r,Target_X,Target_Y,Target_Z,Target_Vx,Target_Vy,Target_Vz,Target_phi,Target_theta,Target_psi,Target_p,Target_q,Target_r,Az,El,R
0,-7.44425673692223e-16,0,-10,25,0,-43.3012701892219,0,1.19453239863935,0,0,0.509680988635387,0,3000,0,-500,-30,0,-3.67394039744206e-15,0,0,3.14159265358979,0,0,0,0,-1.03262870713068,3039.753279462
0.00833333333333333,0.210321172246607,0,-10.3661065428463,25.480526780467,0,-44.5613446730809,0,1.18922470134851,0,0,0.46718841745872,0,2999.75,0,-500,-30,0,-3.67394039744206e-15,0,0,3.14159265358979,0,0,0,0,-1.02741549587561,3039.24000110717
0.0166666666666667,0.424770296710088,0,-10.7426722235887,25.9658255180768,0,-45.8199433321993,0,1.18470620408552,0,0,0.429381376363151,0,2999.5,0,-500,-30,0,-3.67394039744206e-15,0,0,3.14159265358979,0,0,0,0,-1.02299469354418,3038.72098854427
0.025,0.643357307704695,0,-11.1296949103319,26.4555359874057,0,-47.0771889301988,0,1.18091632640404,0,0,0.395939073194838,0,2999.25,0,-500,-30,0,-3.67394039744206e-15,0,0,3.14159265358979,0,0,0,0,-1.01930572103564,3038.19623603747
0.0333333333333333,0.866092139544683,0,-11.5271724711807,26.9492979630296,0,-48.3332042307011,0,1.17779448785769,0,0,0.366540715799942,0,2999,0,-500,-30,0,-3.67394039744206e-15,0,0,3.14159265358979,0,0,0,0,-1.01628799924926,3037.66573785093
0.0416666666666667,1.09298472654431,0,-11.9351027742399,27.4467512195249,0,-49.5881119973282,0,1.17528010800013,0,0,0.340865512024621,0,2998.75,0,-500,-30,0,-3.67394039744206e-15,0,0,3.14159265358979,0,0,0,0,-1.01388094908429,3037.12948824883
0.05,1.32404500301782,0,-12.3534836876143,27.9475355314675,0,-50.8420349937018,0,1.17331260638499,0,0,0.318592669715036,0,2998.5,0,-500,-30,0,-3.67394039744206e-15,0,0,3.14159265358979,0,0,0,0,-1.01202399143998,3036.58748149532
0.0583333333333333,1.55928290327948,0,-12.7823130794088,28.4512906734337,0,-52.0950959834436,0,1.17183140256591,0,0,0.299401396717345,0,2998.25,0,-500,-30,0,-3.67394039744206e-15,0,0,3.14159265358979,0,0,0,0,-1.01065654721561,3036.03971185458
0.0666666666666667,1.79870836164353,0,-13.221588817728,28.9576564199996,0,-53.3474177301754,0,1.17077591609654,0,0,0.282970900877709,0,2998,0,-500,-30,0,-3.67394039744206e-15,0,0,3.14159265358979,0,0,0,0,-1.00971803731043,3035.48617359077
0.075,2.04233131242424,0,-13.6713087706768,29.4662725457412,0,-54.5991229975191,0,1.17008556653052,0,0,0.268980390042286,0,2997.75,0,-500,-30,0,-3.67394039744206e-15,0,0,3.14159265358979,0,0,0,0,-1.00914788262369,3034.92686096806
0.0833333333333333,2.29016168993586,0,-14.1314708063601,29.9767788252348,0,-55.8503345490963,0,1.16969977342149,0,0,0.257109072057236,0,2997.5,0,-500,-30,0,-3.67394039744206e-15,0,0,3.14159265358979,0,0,0,0,-1.00888550405466,3034.36176825062
0.0916666666666667,2.54220942849264,0,-14.6020727928825,30.4888150330565,0,-57.1011751485288,0,1.1695579563231,0,0,0.247036154768719,0,2997.25,0,-500,-30,0,-3.67394039744206e-15,0,0,3.14159265358979,0,0,0,0,-1.0088703225026,3033.79088970261
0.1,2.79848446240883,0,-15.083112598349,31.0020209437824,0,-58.3517675594385,0,1.16959953478897,0,0,0.238440846022893,0,2997,0,-500,-30,0,-3.67394039744206e-15,0,0,3.14159265358979,0,0,0,0,-1.00904175886676,3033.2142195882
0.108333333333333,3.0589967259987,0,-15.5745880908642,31.5160363319886,0,-59.6022345454471,0,1.16976392837276,0,0,0.231002353665919,0,2996.75,0,-500,-30,0,-3.67394039744206e-15,0,0,3.14159265358979,0,0,0,0,-1.0093392340464,3032.63175217156
0.116666666666667,3.32375615357649,0,-16.0764971385331,32.0305009722514,0,-60.8526988701764,0,1.16999055662811,0,0,0.224399885543955,0,2996.5,0,-500,-30,0,-3.67394039744206e-15,0,0,3.14159265358979,0,0,0,0,-1.00970216894079,3032.04348171686
0.125,3.59277267945645,0,-16.5888376094603,32.5450546391467,0,-62.1032832972482,0,1.17021883910866,0,0,0.218312649503162,0,2996.25,0,-500,-30,0,-3.67394039744206e-15,0,0,3.14159265358979,0,0,0,0,-1.01006998444917,3031.44940248826
0.133333333333333,3.86605623795286,0,-17.1116073717507,33.0593371072508,0,-63.3541105902842,0,1.17038819536805,0,0,0.212419853389698,0,2996,0,-500,-30,0,-3.67394039744206e-15,0,0,3.14159265358979,0,0,0,0,-1.01038210147082,3030.84950874993
0.141666666666667,4.14361676336383,0,-17.6448042935101,33.5729881529991,0,-64.6053035121449,0,1.17043804512948,0,0,0.206400705984354,0,2995.75,0,-500,-30,0,-3.67394039744206e-15,0,0,3.14159265358979,0,0,0,0,-1.01057794107454,3030.24379476605
0.15,4.42546304946174,0,-18.1884263121606,34.0857791409398,0,-65.8569309502034,0,1.17031980740317,0,0,0.200000560556102,0,2995.5,0,-500,-30,0,-3.67394039744206e-15,0,0,3.14159265358979,0,0,0,0,-1.01060892377469,3029.63225609598
0.158333333333333,4.71159965446864,0,-18.7424716225432,34.5979701120553,0,-67.1088617153925,0,1.17002946273832,0,0,0.193210409983711,0,2995.25,0,-500,-30,0,-3.67394039744206e-15,0,0,3.14159265358979,0,0,0,0,-1.01047103221326,3029.0148931089
0.166666666666667,5.00203015359132,0,-19.3069384792424,35.1099345226721,0,-68.360918183547,0,1.16957333382857,0,0,0.186078256853992,0,2995,0,-500,-30,0,-3.67394039744206e-15,0,0,3.14159265358979,0,0,0,0,-1.01017059131327,3028.39170729028
0.175,5.29675812203659,0,-19.8818251368429,35.6220458291166,0,-69.6129227305013,0,1.16895774336754,0,0,0.178652103753761,0,2994.75,0,-500,-30,0,-3.67394039744206e-15,0,0,3.14159265358979,0,0,0,0,-1.00971392599776,3027.7627001256
0.183333333333333,5.59578713501124,0,-20.4671298499291,36.1346774877154,0,-70.86469773209,0,1.16818901404887,0,0,0.170979953269832,0,2994.5,0,-500,-30,0,-3.67394039744206e-15,0,0,3.14159265358979,0,0,0,0,-1.00910736118978,3027.12787310034
0.191666666666667,5.89912076772206,0,-21.0628508730856,36.6482029547948,0,-72.1160655641478,0,1.1672734685662,0,0,0.163109807989018,0,2994.25,0,-500,-30,0,-3.67394039744206e-15,0,0,3.14159265358979,0,0,0,0,-1.00835722181235,3026.48722769998
0.2,6.20676259537585,0,-21.668986460897,37.1629956866815,0,-73.3668486025092,0,1.16621742961316,0,0,0.155089670498134,0,2994,0,-500,-30,0,-3.67394039744206e-15,0,0,3.14159265358979,0,0,0,0,-1.00746983278852,3025.84076541
0.208333333333333,6.51871619317939,0,-22.2855348679478,37.6794291397017,0,-74.6168692230087,0,1.16502721988339,0,0,0.146967543383994,0,2993.75,0,-500,-30,0,-3.67394039744206e-15,0,0,3.14159265358979,0,0,0,0,-1.00645151904132,3025.18848771587
0.216666666666667,6.8349856461496,0,-22.9124940939498,38.1978705551375,0,-75.8659522268359,0,1.1637095094546,0,0,0.138791309030242,0,2993.5,0,-500,-30,0,-3.67394039744206e-15,0,0,3.14159265358979,0,0,0,0,-1.00530895277624,3024.5303956583
0.225,7.15558494688141,0,-23.5498571854538,38.718566391965,0,-77.1139695491862,0,1.16227771941816,0,0,0.130606513808989,0,2993.25,0,-500,-30,0,-3.67394039744206e-15,0,0,3.14159265358979,0,0,0,0,-1.00405555523729,3023.86648163423
0.233333333333333,7.48053707981569,0,-24.1976126936578,39.2416534904546,0,-78.360835902785,0,1.16075139790012,0,0,0.122456583992386,0,2993,0,-500,-30,0,-3.67394039744206e-15,0,0,3.14159265358979,0,0,0,0,-1.0027108729106,3023.19673019579
0.241666666666667,7.80986535551683,0,-24.8557490067186,39.7672647151373,0,-79.6064675518479,0,1.15915031524679,0,0,0.11438486895909,0,2992.75,0,-500,-30,0,-3.67394039744206e-15,0,0,3.14159265358979,0,0,0,0,-1.0012946744375,3022.52112561058
0.25,8.14359308454922,0,-25.524254512793,40.2955329305438,0,-80.8507807605905,0,1.15749424180446,0,0,0.106434718087756,0,2992.5,0,-500,-30,0,-3.67394039744206e-15,0,0,3.14159265358979,0,0,0,0,-0.999826728459368,3021.83965214619
0.258333333333333,8.48174357747725,0,-26.2031176000378,40.826591001205,0,-82.0936917932284,0,1.15580294791942,0,0,0.0986494807570435,0,2992.25,0,-500,-30,0,-3.67394039744206e-15,0,0,3.14159265358979,0,0,0,0,-0.998326803617538,3021.15229407023
0.266666666666667,8.8243401448653,0,-26.8923266566098,41.3605717916517,0,-83.335116913977,0,1.15409620393797,0,0,0.0910725063456075,0,2992,0,-500,-30,0,-3.67394039744206e-15,0,0,3.14159265358979,0,0,0,0,-0.996814668553364,3020.45903565029
0.275,9.17140609727776,0,-27.5918700706659,41.8976081664148,0,-84.574972387052,0,1.15239378020641,0,0,0.0837471442321053,0,2991.75,0,-500,-30,0,-3.67394039744206e-15,0,0,3.14159265358979,0,0,0,0,-0.995310091908197,3019.75986115397
0.283333333333333,9.52296474531693,0,-28.3017362303091,42.4378329859906,0,-85.813174478446,0,1.15071544668567,0,0,0.0767167427504207,0,2991.5,0,-500,-30,0,-3.67394039744206e-15,0,0,3.14159265358979,0,0,0,0,-0.993832841938014,3019.05475484886
0.291666666666667,9.87903975972714,0,-29.021913012119,42.9813407824771,0,-87.0496563365798,0,1.14907731237943,0,0,0.0700147247861623,0,2991.25,0,-500,-30,0,-3.67394039744206e-15,0,0,3.14159265358979,0,0,0,0,-0.992399025824575,3018.34370086456
0.3,10.2396560533234,0,-29.7523865285161,43.5280938996231,0,-88.2844093345961,0,1.14748286025124,0,0,0.0636402819843524,0,2991,0,-500,-30,0,-3.67394039744206e-15,0,0,3.14159265358979,0,0,0,0,-0.991012124306078,3017.62668285476
0.308333333333333,10.6048388064915,0,-30.49314251188,44.078026204762,0,-89.517437388584,0,1.14593285332471,0,0,0.0575852317922381,0,2990.75,0,-500,-30,0,-3.67394039744206e-15,0,0,3.14159265358979,0,0,0,0,-0.989672898093919,3016.90368437064
0.316666666666667,10.9746131996171,0,-31.2441666945907,44.631071565227,0,-90.7487444146324,0,1.14442805462349,0,0,0.0518413916570667,0,2990.5,0,-500,-30,0,-3.67394039744206e-15,0,0,3.14159265358979,0,0,0,0,-0.988382107899491,3016.17468896339
0.325,11.3490044130859,0,-32.0054448090278,45.1871638483515,0,-91.9783343288304,0,1.1429692271712,0,0,0.0464005790260853,0,2990.25,0,-500,-30,0,-3.67394039744206e-15,0,0,3.14159265358979,0,0,0,0,-0.987140514434189,3015.43968018417
0.333333333333333,11.7280376272836,0,-32.776962587571,45.7462369214687,0,-93.2062110472671,0,1.14155713399147,0,0,0.0412546113465411,0,2990,0,-500,-30,0,-3.67394039744206e-15,0,0,3.14159265358979,0,0,0,0,-0.985948878409408,3014.69864158419
0.341666666666667,12.1117380225958,0,-33.5587057626003,46.308224651912,0,-94.4323784860313,0,1.14019253810794,0,0,0.0363953060656813,0,2989.75,0,-500,-30,0,-3.67394039744206e-15,0,0,3.14159265358979,0,0,0,0,-0.984807960536542,3013.95155671461
0.35,12.5001307794084,0,-34.3506600664952,46.8730609070145,0,-95.6568405612121,0,1.13887620254423,0,0,0.0318144806307532,0,2989.5,0,-500,-30,0,-3.67394039744206e-15,0,0,3.14159265358979,0,0,0,0,-0.983718521526985,3013.19840912661
0.358333333333333,12.8932409079993,0,-35.1528112587501,47.4406785458477,0,-96.8796017614253,0,1.13760884503621,0,0,0.0275039088207504,0,2989.25,0,-500,-30,0,-3.67394039744206e-15,0,0,3.14159265358979,0,0,0,0,-0.982681276832498,3012.43918255515
0.366666666666667,13.2910904460492,0,-35.965145572681,48.0109928082956,0,-98.1006765800819,0,1.13639039192449,0,0,0.0234546013202389,0,2989,0,-500,-30,0,-3.67394039744206e-15,0,0,3.14159265358979,0,0,0,0,-0.981696151001331,3011.67386394672
0.375,13.6936989025889,0,-36.7876496446616,48.5839039464244,0,-99.3200880212043,0,1.13522009634683,0,0,0.0196569196850762,0,2988.75,0,-500,-30,0,-3.67394039744206e-15,0,0,3.14159265358979,0,0,0,0,-0.980762395797147,3010.90244297967
0.383333333333333,14.1010857060601,0,-37.6203101239114,49.1593117346323,0,-100.537859360051,0,1.13409718998572,0,0,0.0161012047831137,0,2988.5,0,-500,-30,0,-3.67394039744206e-15,0,0,3.14159265358979,0,0,0,0,-0.979879241541677,3010.12490941943
0.391666666666667,14.5132702849046,0,-38.4631136596498,49.7371159473174,0,-101.754013871882,0,1.13302090452363,0,0,0.0127777974822029,0,2988.25,0,-500,-30,0,-3.67394039744206e-15,0,0,3.14159265358979,0,0,0,0,-0.979045918556654,3009.34125303144
0.4,14.9302720675642,0,-39.3160469010961,50.3172163588781,0,-102.968574831956,0,1.13199047164307,0,0,0.00967703865019548,0,2988,0,-500,-30,0,-3.67394039744206e-15,0,0,3.14159265358979,0,0,0,0,-0.97826165716381,3008.55146358112
0.408333333333333,15.3521104824805,0,-40.17909649747,50.8995127437123,0,-104.181565515532,0,1.13100512302651,0,0,0.00678926915494291,0,2987.75,0,-500,-30,0,-3.67394039744206e-15,0,0,3.14159265358979,0,0,0,0,-0.977525687684876,3007.75553083389
0.416666666666667,15.7788049580955,0,-41.0522490979906,51.4839048762184,0,-105.393009197868,0,1.13006409035645,0,0,0.0041048298642967,0,2987.5,0,-500,-30,0,-3.67394039744206e-15,0,0,3.14159265358979,0,0,0,0,-0.976837240441584,3006.9534445552
0.425,16.2103749223819,0,-41.9354913519879,52.0702925313219,0,-106.602929154134,0,1.12916660524311,0,0,0.00161406168013337,0,2987.25,0,-500,-30,0,-3.67394039744206e-15,0,0,3.14159265358979,0,0,0,0,-0.976195545683487,3006.14519451097
0.433333333333333,16.646838389267,0,-42.8288102414326,52.6585770748857,0,-107.811348387583,0,1.12831168133169,0,0,-0.000692591870022414,0,2987,0,-500,-30,0,-3.67394039744206e-15,0,0,3.14159265358979,0,0,0,0,-0.975599615950044,3005.33077195415
0.441666666666667,17.0882088414533,0,-43.7321938142247,53.2486649708356,0,-109.018289030127,0,1.12749763381143,0,0,-0.00282435840086558,0,2986.75,0,-500,-30,0,-3.67394039744206e-15,0,0,3.14159265358979,0,0,0,0,-0.975047766141685,3004.51017290286
0.45,17.5344988558839,0,-44.6456303313354,53.8404637021635,0,-110.223773039506,0,1.12672263825531,0,0,-0.00479039979080518,0,2986.5,0,-500,-30,0,-3.67394039744206e-15,0,0,3.14159265358979,0,0,0,0,-0.974538171705857,3003.68339432771
0.458333333333333,17.985721009502,0,-45.5691080537361,54.4338807518614,0,-111.42782237346,0,1.12598487023629,0,0,-0.00659987791825022,0,2986.25,0,-500,-30,0,-3.67394039744206e-15,0,0,3.14159265358979,0,0,0,0,-0.974069008090005,3002.85043319934
0.466666666666667,18.4418878792509,0,-46.5026152423982,55.028823602921,0,-112.630458989726,0,1.12528250532734,0,0,-0.00826195466160975,0,2986,0,-500,-30,0,-3.67394039744206e-15,0,0,3.14159265358979,0,0,0,0,-0.973638450741575,3002.01128648836
0.475,18.903012042074,0,-47.4461401582929,55.6251997383342,0,-113.831704846045,0,1.12461371910144,0,0,-0.00978579189929276,0,2985.75,0,-500,-30,0,-3.67394039744206e-15,0,0,3.14159265358979,0,0,0,0,-0.973244675108015,3001.1659511654
0.483333333333333,19.3691060749143,0,-48.3996710623917,56.2229166410929,0,-115.031581900155,0,1.12397668713155,0,0,-0.0111805515097083,0,2985.5,0,-500,-30,0,-3.67394039744206e-15,0,0,3.14159265358979,0,0,0,0,-0.97288585663677,3000.31442420108
0.491666666666667,19.8401825547152,0,-49.3631962156657,56.8218817941888,0,-116.230112109795,0,1.12336958499064,0,0,-0.0124553953712654,0,2985.25,0,-500,-30,0,-3.67394039744206e-15,0,0,3.14159265358979,0,0,0,0,-0.972560170775287,2999.45670256603
0.5,20.3162538658301,0,-50.3367039198311,57.4220034543595,0,-117.427317109992,0,1.12279060698631,0,0,-0.0136193704878013,0,2985,0,-500,-30,0,-3.67394039744206e-15,0,0,3.14159265358979,0,0,0,0,-0.972265811740596,2998.59278343837
0.508333333333333,20.7973293535826,0,-51.3201831195479,58.023202087892,0,-118.623213443438,0,1.1222382430548,0,0,-0.014679711165376,0,2984.75,0,-500,-30,0,-3.67394039744206e-15,0,0,3.14159265358979,0,0,0,0,-0.972001269930025,2997.72266727064
0.516666666666667,21.2834159406828,0,-52.3136232720098,58.6254078941216,0,-119.817813593386,0,1.1217112187977,0,0,-0.0156422066874881,0,2984.5,0,-500,-30,0,-3.67394039744206e-15,0,0,3.14159265358979,0,0,0,0,-0.971765271846009,2996.84635712561
0.525,21.7745204825233,0,-53.3170138486521,59.2285513428362,0,-121.011129930285,0,1.12120826636507,0,0,-0.0165126061847339,0,2984.25,0,-500,-30,0,-3.67394039744206e-15,0,0,3.14159265358979,0,0,0,0,-0.971556550551649,2995.9638561386
0.533333333333333,22.2706498344969,0,-54.3303443209101,59.8325629038236,0,-122.203174824589,0,1.12072811790693,0,0,-0.0172966587877094,0,2984,0,-500,-30,0,-3.67394039744206e-15,0,0,3.14159265358979,0,0,0,0,-0.971373839110043,2995.0751674449
0.541666666666667,22.7718108519964,0,-55.3536041602194,60.4373730468719,0,-123.393960646749,0,1.12026950557334,0,0,-0.0180001136270107,0,2983.75,0,-500,-30,0,-3.67394039744206e-15,0,0,3.14159265358979,0,0,0,0,-0.97121587058429,2994.18029417984
0.55,23.2780103904144,0,-56.3867828380154,61.0429122417689,0,-124.583499767217,0,1.11983116151434,0,0,-0.018628719833234,0,2983.5,0,-500,-30,0,-3.67394039744206e-15,0,0,3.14159265358979,0,0,0,0,-0.971081378037491,2993.27923947871
0.558333333333333,23.7892553051437,0,-57.4298698257333,61.6491109583026,0,-125.771804556445,0,1.11941181787996,0,0,-0.0191882265369753,0,2983.25,0,-500,-30,0,-3.67394039744206e-15,0,0,3.14159265358979,0,0,0,0,-0.970969094532745,2992.37200647682
0.566666666666667,24.3055524508955,0,-58.4828545948981,62.2558996695553,0,-126.958887383389,0,1.11901020689312,0,0,-0.0196843824894511,0,2983,0,-500,-30,0,-3.67394039744206e-15,0,0,3.14159265358979,0,0,0,0,-0.970877753206139,2991.45859831027
0.575,24.8269077553865,0,-59.5457267386473,62.8632133303525,0,-128.144758583682,0,1.11862515990378,0,0,-0.0201224203574602,0,2982.75,0,-500,-30,0,-3.67394039744206e-15,0,0,3.14159265358979,0,0,0,0,-0.970806186483161,2990.53901916898
0.583333333333333,25.3533243846072,0,-60.6184762124305,63.4710002476383,0,-129.329422435225,0,1.11825580358365,0,0,-0.0205060352763261,0,2982.5,0,-500,-30,0,-3.67394039744206e-15,0,0,3.14159265358979,0,0,0,0,-0.970753522594737,2989.61327638257
0.591666666666667,25.8848049925394,0,-61.7010930388681,64.0792112037668,0,-130.512882092847,0,1.11790131935548,0,0,-0.0208386373314748,0,2982.25,0,-500,-30,0,-3.67394039744206e-15,0,0,3.14159265358979,0,0,0,0,-0.970718944612496,2988.68137786273
0.6,26.4213522331651,0,-62.7935672405802,64.6877969810917,0,-131.69514071138,0,1.11756088864201,0,0,-0.0211236366083328,0,2982,0,-500,-30,0,-3.67394039744206e-15,0,0,3.14159265358979,0,0,0,0,-0.970701635608068,2987.74333152116
0.608333333333333,26.962968760466,0,-63.8958888401872,65.2967083619671,0,-132.876201445654,0,1.11723369286599,0,0,-0.0213644431923263,0,2981.75,0,-500,-30,0,-3.67394039744206e-15,0,0,3.14159265358979,0,0,0,0,-0.970700778653082,2986.79914526953
0.616666666666667,27.5096572284241,0,-65.0080478603092,65.9058961287467,0,-134.056067450499,0,1.11691891345016,0,0,-0.0215644671688816,0,2981.5,0,-500,-30,0,-3.67394039744206e-15,0,0,3.14159265358979,0,0,0,0,-0.97071555681917,2985.84882701955
0.625,28.0614202910211,0,-66.1300343235665,66.5153110637846,0,-135.234741880746,0,1.11661573181727,0,0,-0.0217271186234251,0,2981.25,0,-500,-30,0,-3.67394039744206e-15,0,0,3.14159265358979,0,0,0,0,-0.97074515317796,2984.89238468291
0.633333333333333,28.6182606022389,0,-67.2618382525794,67.1249039494345,0,-136.412227891225,0,1.11632332939006,0,0,-0.021855807641383,0,2981,0,-500,-30,0,-3.67394039744206e-15,0,0,3.14159265358979,0,0,0,0,-0.970788750801082,2983.92982617129
0.641666666666667,29.1801807037824,0,-68.4034496697731,67.7346261461726,0,-137.58852839617,0,1.1160409012361,0,0,-0.0219538847011913,0,2980.75,0,-500,-30,0,-3.67394039744206e-15,0,0,3.14159265358979,0,0,0,0,-0.970845546423231,2982.96115953462
0.65,29.7471815314602,0,-69.554858594783,68.3444372833478,0,-138.763642868567,0,1.11576783758456,0,0,-0.0220238477233334,0,2980.5,0,-500,-30,0,-3.67394039744206e-15,0,0,3.14159265358979,0,0,0,0,-0.970914932201731,2981.98639480002
0.658333333333333,30.319262821694,0,-70.7160550451611,68.9543031660369,0,-139.937568211253,0,1.11550367442392,0,0,-0.0220675578829844,0,2980.25,0,-500,-30,0,-3.67394039744206e-15,0,0,3.14159265358979,0,0,0,0,-0.97099644624814,2981.00554347126
0.666666666666667,30.8964242821078,0,-71.8870290384093,69.5641897475987,0,-141.110301265358,0,1.11524795124241,0,0,-0.0220868610667972,0,2980,0,-500,-30,0,-3.67394039744206e-15,0,0,3.14159265358979,0,0,0,0,-0.971089630178438,2980.0186170876
0.675,31.4786656203254,0,-73.0677705920295,70.1740629813918,0,-142.281838872009,0,1.11500020752822,0,0,-0.0220836031614248,0,2979.75,0,-500,-30,0,-3.67394039744206e-15,0,0,3.14159265358979,0,0,0,0,-0.971194025608605,2979.02562718828
0.683333333333333,32.0659865439708,0,-74.2582697235235,70.7838888207749,0,-143.452177872336,0,1.11475998276959,0,0,-0.02205963005352,0,2979.5,0,-500,-30,0,-3.67394039744206e-15,0,0,3.14159265358979,0,0,0,0,-0.97130917415462,2978.02658531255
0.691666666666667,32.6583867606678,0,-75.4585164503933,71.3936332191068,0,-144.621315107465,0,1.11452681645473,0,0,-0.0220167876297357,0,2979.25,0,-500,-30,0,-3.67394039744206e-15,0,0,3.14159265358979,0,0,0,0,-0.971434617432464,2977.02150299965
0.7,33.2558659780404,0,-76.6685007901407,72.0032621297462,0,-145.789247418526,0,1.11430024807184,0,0,-0.0219569217767248,0,2979,0,-500,-30,0,-3.67394039744206e-15,0,0,3.14159265358979,0,0,0,0,-0.971569897058117,2976.01039178884
0.708333333333333,33.8584239030545,0,-77.8882127601353,72.6127415089347,0,-146.955971644744,0,1.11407981717348,0,0,-0.0218818781062967,0,2978.75,0,-500,-30,0,-3.67394039744206e-15,0,0,3.14159265358979,0,0,0,0,-0.971714554711962,2974.99326322026
0.716666666666667,34.4660597537795,0,-79.1176422793678,73.2220394545251,0,-148.121483212022,0,1.11386511108688,0,0,-0.0217932980627072,0,2978.5,0,-500,-30,0,-3.67394039744206e-15,0,0,3.14159265358979,0,0,0,0,-0.971868179916577,2973.97012950028
0.725,35.078771393161,0,-80.356778994143,73.831130000497,0,-149.285773628804,0,1.11365584956151,0,0,-0.0216922571777529,0,2978.25,0,-500,-30,0,-3.67394039744206e-15,0,0,3.14159265358979,0,0,0,0,-0.972030494803731,2972.94100468199
0.733333333333333,35.6965564512806,0,-81.6056125039074,74.4399882008895,0,-150.448833730363,0,1.11345177510216,0,0,-0.0215797337372201,0,2978,0,-500,-30,0,-3.67394039744206e-15,0,0,3.14159265358979,0,0,0,0,-0.972201244292664,2971.90590313579
0.741666666666667,36.3194125582202,0,-82.8641324081074,75.0485891097422,0,-151.610654351971,0,1.11325263021362,0,0,-0.0214567060268955,0,2977.75,0,-500,-30,0,-3.67394039744206e-15,0,0,3.14159265358979,0,0,0,0,-0.972380173302619,2970.86483923207
0.75,36.9473373440614,0,-84.1323283061896,75.6569077810942,0,-152.7712263289,0,1.1130581574007,0,0,-0.0213241523325657,0,2977.5,0,-500,-30,0,-3.67394039744206e-15,0,0,3.14159265358979,0,0,0,0,-0.972567026752835,2969.81782734126
0.758333333333333,37.5803284388861,0,-85.4101897976003,76.264919268985,0,-153.930540496423,0,1.11286809916817,0,0,-0.0211830509400172,0,2977.25,0,-500,-30,0,-3.67394039744206e-15,0,0,3.14159265358979,0,0,0,0,-0.972761549562554,2968.76488183374
0.766666666666667,38.2183834727761,0,-86.6977064817861,76.8725986274539,0,-155.088587689811,0,1.11268219802083,0,0,-0.0210343801350367,0,2977,0,-500,-30,0,-3.67394039744206e-15,0,0,3.14159265358979,0,0,0,0,-0.972963486651017,2967.70601707993
0.775,38.861500075813,0,-87.9948679581934,77.4799209105402,0,-156.245358744338,0,1.11250019646348,0,0,-0.0208791182034106,0,2976.75,0,-500,-30,0,-3.67394039744206e-15,0,0,3.14159265358979,0,0,0,0,-0.973172582937466,2966.64124745023
0.783333333333333,39.5096758153467,0,-89.3016638006996,78.0868615805852,0,-157.400844639372,0,1.11232184188137,0,0,-0.0207182229234597,0,2976.5,0,-500,-30,0,-3.67394039744206e-15,0,0,3.14159265358979,0,0,0,0,-0.973388588229577,2965.57058741157
0.791666666666667,40.1629074427079,0,-90.6180832505768,78.6934014111384,0,-158.555038228708,0,1.11214694514494,0,0,-0.0205523853114352,0,2976.25,0,-500,-30,0,-3.67394039744206e-15,0,0,3.14159265358979,0,0,0,0,-0.973611315924054,2964.49405268652
0.8,40.8211911384038,0,-91.9441153164329,79.2995248910546,0,-159.707933677341,0,1.11197536153391,0,0,-0.0203821097777893,0,2976,0,-500,-30,0,-3.67394039744206e-15,0,0,3.14159265358979,0,0,0,0,-0.973840623899486,2963.41165987597
0.808333333333333,41.484523071221,0,-93.279749002098,79.9052165854761,0,-160.859525177188,0,1.11180694723984,0,0,-0.0202078969013099,0,2975.75,0,-500,-30,0,-3.67394039744206e-15,0,0,3.14159265358979,0,0,0,0,-0.974076370947829,2962.32342559886
0.816666666666667,42.1528994099459,0,-94.6249733114028,80.5104610595455,0,-162.009806920168,0,1.11164155845434,0,0,-0.020030247260785,0,2975.5,0,-500,-30,0,-3.67394039744206e-15,0,0,3.14159265358979,0,0,0,0,-0.97431841586104,2961.22936647413
0.825,42.826316323365,0,-95.9797772481773,81.1152428784052,0,-163.158773098199,0,1.11147905136898,0,0,-0.0198496614350028,0,2975.25,0,-500,-30,0,-3.67394039744206e-15,0,0,3.14159265358979,0,0,0,0,-0.974566617431076,2960.12949912072
0.833333333333333,43.5047699802648,0,-97.3441498162522,81.7195466071979,0,-164.306417903199,0,1.11131928217534,0,0,-0.0196666400027512,0,2975,0,-500,-30,0,-3.67394039744206e-15,0,0,3.14159265358979,0,0,0,0,-0.974820834449893,2959.02384015757
0.841666666666667,44.1882565494317,0,-98.7180800194577,82.323356811066,0,-165.452735527086,0,1.11116210706502,0,0,-0.0194816835428184,0,2974.75,0,-500,-30,0,-3.67394039744206e-15,0,0,3.14159265358979,0,0,0,0,-0.975080925709449,2957.9124062036
0.85,44.8767721989836,0,-100.101556861067,82.9266580512195,0,-166.597720148578,0,1.11100738226445,0,0,-0.0192952924954593,0,2974.5,0,-500,-30,0,-3.67394039744206e-15,0,0,3.14159265358979,0,0,0,0,-0.975346750036574,2956.79521387889
0.858333333333333,45.5703127911538,0,-101.494569089713,83.52943309002,0,-167.741359908351,0,1.11085497994889,0,0,-0.019107903932928,0,2974.25,0,-500,-30,0,-3.67394039744206e-15,0,0,3.14159265358979,0,0,0,0,-0.975618182210156,2955.6722803175
0.866666666666667,46.2688733987586,0,-102.89710479685,84.1316600474126,0,-168.883627364275,0,1.11070481345378,0,0,-0.0189197913891202,0,2974,0,-500,-30,0,-3.67394039744206e-15,0,0,3.14159265358979,0,0,0,0,-0.975895138177702,2954.54362398007
0.875,46.9724489689792,0,-104.309151969348,84.7333163045068,0,-170.024492594234,0,1.11055680266518,0,0,-0.0187312023710021,0,2973.75,0,-500,-30,0,-3.67394039744206e-15,0,0,3.14159265358979,0,0,0,0,-0.976177540438657,2953.40926353835
0.883333333333333,47.6810344489969,0,-105.730698594074,85.3343792424127,0,-171.163925676112,0,1.11041086746913,0,0,-0.0185423843855392,0,2973.5,0,-500,-30,0,-3.67394039744206e-15,0,0,3.14159265358979,0,0,0,0,-0.976465311492465,2952.26921766409
0.891666666666667,48.3946247859929,0,-107.161732657898,85.93482624224,0,-172.301896687792,0,1.11026692775167,0,0,-0.0183535849396977,0,2973.25,0,-500,-30,0,-3.67394039744206e-15,0,0,3.14159265358979,0,0,0,0,-0.976758373838569,2951.12350502904
0.9,49.1132149271486,0,-108.602242147687,86.5346346850986,0,-173.43837570716,0,1.11012490339886,0,0,-0.0181650515404431,0,2973,0,-500,-30,0,-3.67394039744206e-15,0,0,3.14159265358979,0,0,0,0,-0.977056649976414,2949.97214430496
0.908333333333333,49.8367998196453,0,-110.05221505031,87.1337819520983,0,-174.573332812098,0,1.10998471429673,0,0,-0.0179770316947416,0,2972.75,0,-500,-30,0,-3.67394039744206e-15,0,0,3.14159265358979,0,0,0,0,-0.977360062405443,2948.81515416358
0.916666666666667,50.5653744106641,0,-111.511639352634,87.732245424349,0,-175.706738080492,0,1.10984628033135,0,0,-0.0177897729095588,0,2972.5,0,-500,-30,0,-3.67394039744206e-15,0,0,3.14159265358979,0,0,0,0,-0.9776685336251,2947.65255327667
0.925,51.2989336248559,0,-112.980503037541,88.3300046545606,0,-176.83856561141,0,1.10970952306374,0,0,-0.0176035140032683,0,2972.25,0,-500,-30,0,-3.67394039744206e-15,0,0,3.14159265358979,0,0,0,0,-0.977981987823994,2946.48436037417
0.933333333333333,52.0374721195266,0,-114.45879404058,88.9270649634593,0,-177.968837218944,0,1.10957438393017,0,0,-0.0174183906961704,0,2972,0,-500,-30,0,-3.67394039744206e-15,0,0,3.14159265358979,0,0,0,0,-0.978300369234222,2945.31059487661
0.941666666666667,52.7809843768884,0,-115.946500266307,89.5234485481369,0,-179.097605967403,0,1.10944081738393,0,0,-0.0172344711860704,0,2971.75,0,-500,-30,0,-3.67394039744206e-15,0,0,3.14159265358979,0,0,0,0,-0.978623635215051,2944.13127665684
0.95,53.5294648761158,0,-117.443609618739,90.1191778984917,0,-180.224925463295,0,1.10930877810412,0,0,-0.017051822499251,0,2971.5,0,-500,-30,0,-3.67394039744206e-15,0,0,3.14159265358979,0,0,0,0,-0.978951743353508,2942.94642559553
0.958333333333333,54.2829080963832,0,-118.950110001891,90.7142755044221,0,-181.350849313125,0,1.10917822076986,0,0,-0.0168705116619948,0,2971.25,0,-500,-30,0,-3.67394039744206e-15,0,0,3.14159265358979,0,0,0,0,-0.979284651236618,2941.75606157334
0.966666666666667,55.0413085168651,0,-120.465989319782,91.3087638558266,0,-182.475431123397,0,1.10904910006026,0,0,-0.0166906057005844,0,2971,0,-500,-30,0,-3.67394039744206e-15,0,0,3.14159265358979,0,0,0,0,-0.97962231645141,2940.56020447095
0.975,55.804660616736,0,-121.991235476427,91.9026654426034,0,-183.598724500618,0,1.10892137065444,0,0,-0.0165121716413026,0,2970.75,0,-500,-30,0,-3.67394039744206e-15,0,0,3.14159265358979,0,0,0,0,-0.979964696584907,2939.35887416905
0.983333333333333,56.5729588751703,0,-123.525836375844,92.4960027546512,0,-184.720783051293,0,1.10879498723151,0,0,-0.0163352765104319,0,2970.5,0,-500,-30,0,-3.67394039744206e-15,0,0,3.14159265358979,0,0,0,0,-0.980311749224138,2938.1520905483
0.991666666666667,57.3461977693948,0,-125.069779918667,93.0887981451852,0,-185.841660108648,0,1.10866990450727,0,0,-0.0161599873248009,0,2970.25,0,-500,-30,0,-3.67394039744206e-15,0,0,3.14159265358979,0,0,0,0,-0.980663431991952,2936.93987349228
1,58.1243711810978,0,-126.623052971167,93.6810321718526,0,-186.961325440898,0,1.10854608841557,0,0,-0.0159863682103234,0,2970,0,-500,-30,0,-3.67394039744206e-15,0,0,3.14159265358979,0,0,0,0,-0.981019713465606,2935.72224376798
1.00833333333333,58.907471559842,0,-128.18563991223,94.2725848841274,0,-188.079547862747,0,1.10842353186699,0,0,-0.0158144763409666,0,2969.75,0,-500,-30,0,-3.67394039744206e-15,0,0,3.14159265358979,0,0,0,0,-0.98138058856504,2934.49922426691
1.01666666666667,59.6954911443041,0,-129.757524754464,94.8633215312868,0,-189.196066597756,0,1.10830223174448,0,0,-0.0156443678669979,0,2969.5,0,-500,-30,0,-3.67394039744206e-15,0,0,3.14159265358979,0,0,0,0,-0.981746056089249,2933.27083819338
1.025,60.4884221731612,0,-131.338691510476,95.4531073626081,0,-190.310620869486,0,1.10818218493102,0,0,-0.0154760989386849,0,2969.25,0,-500,-30,0,-3.67394039744206e-15,0,0,3.14159265358979,0,0,0,0,-0.982116114837231,2932.03710875172
1.03333333333333,61.28625688509,0,-132.929124192874,96.0418076273684,0,-191.422949901499,0,1.1080633883096,0,0,-0.0153097257062951,0,2969,0,-500,-30,0,-3.67394039744206e-15,0,0,3.14159265358979,0,0,0,0,-0.982490763607982,2930.79805914627
1.04166666666667,62.0889875187675,0,-134.528806814266,96.6292875748451,0,-192.532792917355,0,1.10794583876317,0,0,-0.0151453043200959,0,2968.75,0,-500,-30,0,-3.67394039744206e-15,0,0,3.14159265358979,0,0,0,0,-0.982870001200497,2929.55371258133
1.05,62.8966063128705,0,-136.137723387259,97.2154124543153,0,-193.639889140617,0,1.10782953317473,0,0,-0.014982890930355,0,2968.5,0,-500,-30,0,-3.67394039744206e-15,0,0,3.14159265358979,0,0,0,0,-0.983253826413774,2928.30409226124
1.05833333333333,63.709105506076,0,-137.75585792446,97.8000475150564,0,-194.743977794846,0,1.10771446842724,0,0,-0.0148225416873397,0,2968.25,0,-500,-30,0,-3.67394039744206e-15,0,0,3.14159265358979,0,0,0,0,-0.983642238046808,2927.04922139033
1.06666666666667,64.5264776018098,0,-139.383194990171,98.3830897932599,0,-195.844861230407,0,1.10760064081456,0,0,-0.0146642856023479,0,2968,0,-500,-30,0,-3.67394039744206e-15,0,0,3.14159265358979,0,0,0,0,-0.984035234507149,2925.78912289512
1.075,65.3487179768459,0,-141.019725136266,98.9647813117016,0,-196.943026919235,0,1.1074880402368,0,0,-0.0145078571447029,0,2967.75,0,-500,-30,0,-3.67394039744206e-15,0,0,3.14159265358979,0,0,0,0,-0.984432809953934,2924.52381668714
1.08333333333333,66.1758237690918,0,-142.665442584524,99.5455755424871,0,-198.039382258278,0,1.10737665267523,0,0,-0.0143528102529311,0,2967.5,0,-500,-30,0,-3.67394039744206e-15,0,0,3.14159265358979,0,0,0,0,-0.984834955942362,2923.25332083
1.09166666666667,67.0077921419125,0,-144.320341609775,100.125929014251,0,-199.134840714559,0,1.10726646405446,0,0,-0.0141986962559618,0,2967.25,0,-500,-30,0,-3.67394039744206e-15,0,0,3.14159265358979,0,0,0,0,-0.98524166398999,2921.97765336056
1.1,67.844620258673,0,-145.984416486849,100.706298255626,0,-200.2303157551,0,1.1071574602991,0,0,-0.0140450664827244,0,2967,0,-500,-30,0,-3.67394039744206e-15,0,0,3.14159265358979,0,0,0,0,-0.985652925614377,2920.69683231572
1.10833333333333,68.6863052827382,0,-147.657661490575,101.287139795248,0,-201.326720846921,0,1.10704962733377,0,0,-0.0138914722621483,0,2966.75,0,-500,-30,0,-3.67394039744206e-15,0,0,3.14159265358979,0,0,0,0,-0.986068732333081,2919.41087573233
1.11666666666667,69.5328443774732,0,-149.340070895783,101.868910161751,0,-202.424969457046,0,1.10694295108307,0,0,-0.0137374649231628,0,2966.5,0,-500,-30,0,-3.67394039744206e-15,0,0,3.14159265358979,0,0,0,0,-0.986489075663661,2918.1198016473
1.125,70.3842347062429,0,-151.031638977302,102.452065883768,0,-203.525975052495,0,1.10683741747162,0,0,-0.0135825957946972,0,2966.25,0,-500,-30,0,-3.67394039744206e-15,0,0,3.14159265358979,0,0,0,0,-0.986913947123673,2916.82362809748
1.13333333333333,71.2404734040592,0,-152.732359955066,103.03706061958,0,-204.630645422015,0,1.10673301276602,0,0,-0.0134264176177707,0,2966,0,-500,-30,0,-3.67394039744206e-15,0,0,3.14159265358979,0,0,0,0,-0.987343338554808,2915.5223731541
1.14166666666667,72.1015514545453,0,-154.442216139067,103.623725287315,0,-205.738656418971,0,1.10662979742745,0,0,-0.0132687894946097,0,2965.75,0,-500,-30,0,-3.67394039744206e-15,0,0,3.14159265358979,0,0,0,0,-0.987777312120909,2914.2160623359
1.15,72.967446047108,0,-156.161163131783,104.210494337896,0,-206.846921336221,0,1.10652799829526,0,0,-0.0131102575288741,0,2965.5,0,-500,-30,0,-3.67394039744206e-15,0,0,3.14159265358979,0,0,0,0,-0.988216087680135,2912.90473786244
1.15833333333333,73.8381324938629,0,-157.889152900992,104.79561217335,0,-207.951977502486,0,1.1064278648516,0,0,-0.0129514613200578,0,2965.25,0,-500,-30,0,-3.67394039744206e-15,0,0,3.14159265358979,0,0,0,0,-0.988659906551679,2911.58844422613
1.16666666666667,74.7135861069256,0,-159.626137414477,105.377323195702,0,-209.050362246492,0,1.10632964657863,0,0,-0.0127930404676546,0,2965,0,-500,-30,0,-3.67394039744206e-15,0,0,3.14159265358979,0,0,0,0,-0.989109010054735,2910.26722591937
1.175,75.5937821984117,0,-161.372068640016,105.953871806979,0,-210.138612896961,0,1.10623359295851,0,0,-0.0126356345711583,0,2964.75,0,-500,-30,0,-3.67394039744206e-15,0,0,3.14159265358979,0,0,0,0,-0.989563639508496,2908.94112743458
1.18333333333333,76.4786960804368,0,-163.12689854539,106.523502409206,0,-211.213266782617,0,1.10613995347341,0,0,-0.0124798832300627,0,2964.5,0,-500,-30,0,-3.67394039744206e-15,0,0,3.14159265358979,0,0,0,0,-0.990024036232154,2907.61019326415
1.19166666666667,77.3683030651165,0,-164.890579098381,107.08445940441,0,-212.270861232185,0,1.10604897760549,0,0,-0.0123264260438615,0,2964.25,0,-500,-30,0,-3.67394039744206e-15,0,0,3.14159265358979,0,0,0,0,-0.990490441544904,2906.27446790051
1.2,78.2625784645664,0,-166.663062266767,107.634987194617,0,-213.307933574386,0,1.10596091483691,0,0,-0.0121759026120485,0,2964,0,-500,-30,0,-3.67394039744206e-15,0,0,3.14159265358979,0,0,0,0,-0.990963096765939,2904.93399583606
1.20833333333333,79.1615021956352,0,-168.444309267941,108.173822375104,0,-214.321998741439,0,1.10587598035191,0,0,-0.0120286233434421,0,2963.75,0,-500,-30,0,-3.67394039744206e-15,0,0,3.14159265358979,0,0,0,0,-0.991442211996929,2903.58881614193
1.21666666666667,80.0650999944731,0,-170.234373357368,108.704599099904,0,-215.320299288861,0,1.10579404805407,0,0,-0.0118816230418646,0,2963.5,0,-500,-30,0,-3.67394039744206e-15,0,0,3.14159265358979,0,0,0,0,-0.991927686710242,2902.23891394489
1.225,80.9734238660491,0,-172.033360557171,109.233759359037,0,-216.315654748817,0,1.10571479618616,0,0,-0.0117300585629482,0,2963.25,0,-500,-30,0,-3.67394039744206e-15,0,0,3.14159265358979,0,0,0,0,-0.992419242290305,2900.88424344474
1.23333333333333,81.8865261264599,0,-173.84137751444,109.767778398519,0,-217.320950707151,0,1.10563790067357,0,0,-0.0115690645199187,0,2963,0,-500,-30,0,-3.67394039744206e-15,0,0,3.14159265358979,0,0,0,0,-0.992916598012273,2899.52475847494
1.24166666666667,82.8044590918023,0,-175.658530876266,110.313131464362,0,-218.349072749704,0,1.10556303744166,0,0,-0.0113937755260019,0,2962.75,0,-500,-30,0,-3.67394039744206e-15,0,0,3.14159265358979,0,0,0,0,-0.993419473151301,2898.16041286897
1.25,83.727275078173,0,-177.484927289741,110.876293802581,0,-219.412906462318,0,1.10548988241583,0,0,-0.0111993261944233,0,2962.5,0,-500,-30,0,-3.67394039744206e-15,0,0,3.14159265358979,0,0,0,0,-0.993927586982544,2896.79116046031
1.25833333333333,84.6550264016688,0,-179.320673401954,111.463740659188,0,-220.525337430837,0,1.10541811152144,0,0,-0.0109808511384088,0,2962.25,0,-500,-30,0,-3.67394039744206e-15,0,0,3.14159265358979,0,0,0,0,-0.994440658781158,2895.41695508242
1.26666666666667,85.5877653783864,0,-181.165875859997,112.081947280199,0,-221.699251241102,0,1.10534740068388,0,0,-0.010733484971184,0,2962,0,-500,-30,0,-3.67394039744206e-15,0,0,3.14159265358979,0,0,0,0,-0.994958407822297,2894.03775056878
1.275,86.5255437854691,0,-183.02064023884,112.737332217326,0,-222.947420737633,0,1.10527742590981,0,0,-0.0104524173408299,0,2961.75,0,-500,-30,0,-3.67394039744206e-15,0,0,3.14159265358979,0,0,0,0,-0.995480553107431,2892.65350139235
1.28333333333333,87.4683266227655,0,-184.884899490484,113.427185630566,0,-224.264466199944,0,1.10520787629432,0,0,-0.0101416990987671,0,2961.5,0,-500,-30,0,-3.67394039744206e-15,0,0,3.14159265358979,0,0,0,0,-0.996006769571583,2891.26426498703
1.29166666666667,88.4158972953522,0,-186.75822532694,114.12969512299,0,-225.607020886731,0,1.10513846832205,0,0,-0.00982392452075445,0,2961.25,0,-500,-30,0,-3.67394039744206e-15,0,0,3.14159265358979,0,0,0,0,-0.996536639933995,2889.87031424841
1.3,89.3680163979639,0,-188.640144084424,114.820648802106,0,-226.926946460485,0,1.10506892191805,0,0,-0.00952401714479129,0,2961,0,-500,-30,0,-3.67394039744206e-15,0,0,3.14159265358979,0,0,0,0,-0.997069735330571,2888.47194913645
1.30833333333333,90.3244445253356,0,-190.530182099151,115.475834775416,0,-228.176104583696,0,1.10499895700741,0,0,-0.00926690050887674,0,2960.75,0,-500,-30,0,-3.67394039744206e-15,0,0,3.14159265358979,0,0,0,0,-0.997605626897218,2887.0694696111
1.31666666666667,91.2849422722022,0,-192.427865707338,116.071041150428,0,-229.306356918857,0,1.10492829351517,0,0,-0.00907749815100998,0,2960.5,0,-500,-30,0,-3.67394039744206e-15,0,0,3.14159265358979,0,0,0,0,-0.998143885769838,2885.66317563234
1.325,92.2492702332985,0,-194.332721245198,116.582056034645,0,-230.269565128457,0,1.1048566513664,0,0,-0.00898073360919018,0,2960.25,0,-500,-30,0,-3.67394039744206e-15,0,0,3.14159265358979,0,0,0,0,-0.998684083084339,2884.25336716012
1.33333333333333,93.2171890033594,0,-196.244275048948,116.984667535574,0,-231.017590874987,0,1.10478375048618,0,0,-0.00900153042141651,0,2960,0,-500,-30,0,-3.67394039744206e-15,0,0,3.14159265358979,0,0,0,0,-0.999225789976623,2882.84034415442
1.34166666666667,94.1884591771198,0,-198.162053454802,117.254663760718,0,-231.502295820939,0,1.10470931079955,0,0,-0.00916481212568814,0,2959.75,0,-500,-30,0,-3.67394039744206e-15,0,0,3.14159265358979,0,0,0,0,-0.999768577582597,2881.42440657519
1.35,95.1627867906283,0,-200.085474438737,117.372887279165,0,-231.685590798941,0,1.10463317896573,0,0,-0.00948714795626848,0,2959.5,0,-500,-30,0,-3.67394039744206e-15,0,0,3.14159265358979,0,0,0,0,-1.00031210821837,2880.00591974418
1.35833333333333,96.1393790861886,0,-202.012965311193,117.366390237128,0,-231.621259513756,0,1.10455636028969,0,0,-0.00990872931041096,0,2959.25,0,-500,-30,0,-3.67394039744206e-15,0,0,3.14159265358979,0,0,0,0,-1.00085687779997,2878.58584654241
1.36666666666667,97.1171759706462,0,-203.942422421616,117.2869914476,0,-231.412326216197,0,1.1044804810688,0,0,-0.0103288118193153,0,2959,0,-500,-30,0,-3.67394039744206e-15,0,0,3.14159265358979,0,0,0,0,-1.00140382902293,2877.16547012114
1.375,98.0951148077957,0,-205.871737068639,117.186745318572,0,-231.162283561899,0,1.10440717350765,0,0,-0.010646261709273,0,2958.75,0,-500,-30,0,-3.67394039744206e-15,0,0,3.14159265358979,0,0,0,0,-1.00195390883278,2875.7460766782
1.38333333333333,99.0722310913726,0,-207.798995548666,117.112899521666,0,-230.965068089632,0,1.10433780697301,0,0,-0.0107728112685596,0,2958.5,0,-500,-30,0,-3.67394039744206e-15,0,0,3.14159265358979,0,0,0,0,-1.00250786468204,2874.32883359807
1.39166666666667,100.048389725354,0,-209.72393231102,117.072074409937,0,-230.833846482171,0,1.10427152928367,0,0,-0.0107289388366051,0,2958.25,0,-500,-30,0,-3.67394039744206e-15,0,0,3.14159265358979,0,0,0,0,-1.00306475787543,2872.91390403537
1.4,101.023872430047,0,-211.647110076746,117.050473263019,0,-230.741194899998,0,1.10420637182958,0,0,-0.0105897725842579,0,2958,0,-500,-30,0,-3.67394039744206e-15,0,0,3.14159265358979,0,0,0,0,-1.00362280235185,2871.5009464736
1.40833333333333,101.998964076309,0,-213.56909782747,117.034145035877,0,-230.659382695721,0,1.10414035756207,0,0,-0.0104308537590559,0,2957.75,0,-500,-30,0,-3.67394039744206e-15,0,0,3.14159265358979,0,0,0,0,-1.00418020564526,2870.08961558162
1.41666666666667,102.97392074646,0,-215.490407282006,117.010551630583,0,-230.563483868971,0,1.10407171390701,0,0,-0.0103200340777715,0,2957.5,0,-500,-30,0,-3.67394039744206e-15,0,0,3.14159265358979,0,0,0,0,-1.00473536116193,2868.67960089314
1.425,103.948773228506,0,-217.411102029945,116.978212437981,0,-230.450521120009,0,1.10400026847407,0,0,-0.0102649882697148,0,2957.25,0,-500,-30,0,-3.67394039744206e-15,0,0,3.14159265358979,0,0,0,0,-1.00528811691371,2867.27086478831
1.43333333333333,104.923446213,0,-219.331034624173,116.940854132536,0,-230.327853411838,0,1.10392660244465,0,0,-0.0102450520219957,0,2957,0,-500,-30,0,-3.67394039744206e-15,0,0,3.14159265358979,0,0,0,0,-1.00583900592728,2865.86349813835
1.44166666666667,105.897863769983,0,-221.250056383325,116.902233843642,0,-230.202900159351,0,1.10385130140744,0,0,-0.0102393952801293,0,2956.75,0,-500,-30,0,-3.67394039744206e-15,0,0,3.14159265358979,0,0,0,0,-1.00638856523563,2864.45759256596
1.45,106.871958445938,0,-223.168035364204,116.865694551137,0,-230.082259822191,0,1.10377489646604,0,0,-0.0102294265778719,0,2956.5,0,-500,-30,0,-3.67394039744206e-15,0,0,3.14159265358979,0,0,0,0,-1.0069372828226,2863.0532294437
1.45833333333333,107.845724288384,0,-225.084961067836,116.83157436219,0,-229.96657439822,0,1.10369752340631,0,0,-0.0102127965831018,0,2956.25,0,-500,-30,0,-3.67394039744206e-15,0,0,3.14159265358979,0,0,0,0,-1.00748529079447,2861.65041577376
1.46666666666667,108.819182467972,0,-227.000876554473,116.798886177734,0,-229.853858971894,0,1.1036191436714,0,0,-0.0101943190550558,0,2956,0,-500,-30,0,-3.67394039744206e-15,0,0,3.14159265358979,0,0,0,0,-1.00803256430876,2860.24912575964
1.475,109.792354274108,0,-228.915825118858,116.766637096644,0,-229.742117126437,0,1.10353971794115,0,0,-0.0101788391146404,0,2955.75,0,-500,-30,0,-3.67394039744206e-15,0,0,3.14159265358979,0,0,0,0,-1.00857907783579,2858.84933346121
1.48333333333333,110.765258555739,0,-230.829845145221,116.733954660662,0,-229.629592462122,0,1.10345922292767,0,0,-0.0101705572476951,0,2955.5,0,-500,-30,0,-3.67394039744206e-15,0,0,3.14159265358979,0,0,0,0,-1.00912482028248,2857.45101590144
1.49166666666667,111.737897726373,0,-232.742941947526,116.700777544452,0,-229.516144994839,0,1.10337774331369,0,0,-0.0101693325894139,0,2955.25,0,-500,-30,0,-3.67394039744206e-15,0,0,3.14159265358979,0,0,0,0,-1.00966987777994,2856.05417005842
1.5,112.710267416048,0,-234.655107190503,116.667379204979,0,-229.402301890489,0,1.10329540834513,0,0,-0.0101732324510852,0,2955,0,-500,-30,0,-3.67394039744206e-15,0,0,3.14159265358979,0,0,0,0,-1.01021437658709,2854.65880114641
1.50833333333333,113.682363233481,0,-236.566332495988,116.63403415129,0,-229.288592411544,0,1.10321234740793,0,0,-0.0101803185130509,0,2954.75,0,-500,-30,0,-3.67394039744206e-15,0,0,3.14159265358979,0,0,0,0,-1.01075844308891,2853.26491440556
1.51666666666667,114.654181520084,0,-238.476610900764,116.60098136087,0,-229.175476116225,0,1.10312868252195,0,0,-0.010188859375775,0,2954.5,0,-500,-30,0,-3.67394039744206e-15,0,0,3.14159265358979,0,0,0,0,-1.01130219676385,2851.87251419495
1.525,115.625723201962,0,-240.385944295402,116.568237478554,0,-229.062976400326,0,1.10304448961491,0,0,-0.010198418407018,0,2954.25,0,-500,-30,0,-3.67394039744206e-15,0,0,3.14159265358979,0,0,0,0,-1.01184571387366,2850.48159936056
1.53333333333333,116.596990974903,0,-242.294337988022,116.535733329099,0,-228.950948301585,0,1.10295982682305,0,0,-0.0102090587528023,0,2954,0,-500,-30,0,-3.67394039744206e-15,0,0,3.14159265358979,0,0,0,0,-1.01238905399854,2849.09216662031
1.54166666666667,117.567987538475,0,-244.201797294038,116.503399554061,0,-228.839246498341,0,1.10287475224461,0,0,-0.0102208446260413,0,2953.75,0,-500,-30,0,-3.67394039744206e-15,0,0,3.14159265358979,0,0,0,0,-1.01293227668308,2847.70421268761
1.55,118.538715389649,0,-246.108327107196,116.47117680971,0,-228.727746091595,0,1.1027893221907,0,0,-0.0102338016873399,0,2953.5,0,-500,-30,0,-3.67394039744206e-15,0,0,3.14159265358979,0,0,0,0,-1.01347543954807,2846.31773452495
1.55833333333333,119.509175846514,0,-248.013929867605,116.439064026602,0,-228.616441019099,0,1.10270358257332,0,0,-0.0102477312665379,0,2953.25,0,-500,-30,0,-3.67394039744206e-15,0,0,3.14159265358979,0,0,0,0,-1.01401858902018,2844.93273054439
1.56666666666667,120.479369801886,0,-249.918607130237,116.407081157477,0,-228.505368088411,0,1.10261757555304,0,0,-0.0102623537671917,0,2953,0,-500,-30,0,-3.67394039744206e-15,0,0,3.14159265358979,0,0,0,0,-1.01456176748782,2843.54919968094
1.575,121.449298148004,0,-251.822360448872,116.375248183352,0,-228.394564164761,0,1.10253134328537,0,0,-0.0102773894839861,0,2952.75,0,-500,-30,0,-3.67394039744206e-15,0,0,3.14159265358979,0,0,0,0,-1.01510501733397,2842.16714087028
1.58333333333333,122.418961838546,0,-253.725191492792,116.343582002537,0,-228.284060281812,0,1.10244492468829,0,0,-0.0102925881543356,0,2952.5,0,-500,-30,0,-3.67394039744206e-15,0,0,3.14159265358979,0,0,0,0,-1.01564837774223,2840.78655297633
1.59166666666667,123.388362159855,0,-255.627102556706,116.312082820513,0,-228.17385589535,0,1.10235834114865,0,0,-0.010307858947592,0,2952.25,0,-500,-30,0,-3.67394039744206e-15,0,0,3.14159265358979,0,0,0,0,-1.01619187057152,2839.40743447429
1.6,124.357500510353,0,-257.528096146043,116.280745218684,0,-228.063939822073,0,1.10227160814675,0,0,-0.010323164748279,0,2952,0,-500,-30,0,-3.67394039744206e-15,0,0,3.14159265358979,0,0,0,0,-1.01673551184384,2838.0297837084
1.60833333333333,125.326378288548,0,-259.428174766392,116.249563774168,0,-227.954300870577,0,1.1021847411584,0,0,-0.0103384684818164,0,2951.75,0,-500,-30,0,-3.67394039744206e-15,0,0,3.14159265358979,0,0,0,0,-1.01727931757674,2836.6535990228
1.61666666666667,126.294996873717,0,-261.327340884827,116.218533887096,0,-227.844929575145,0,1.1020977539437,0,0,-0.0103537363100544,0,2951.5,0,-500,-30,0,-3.67394039744206e-15,0,0,3.14159265358979,0,0,0,0,-1.0178233020603,2835.27887878699
1.625,127.263357548169,0,-263.225596774221,116.187655107231,0,-227.735825171001,0,1.10201065161217,0,0,-0.0103689507130179,0,2951.25,0,-500,-30,0,-3.67394039744206e-15,0,0,3.14159265358979,0,0,0,0,-1.0183674708748,2833.9056214983
1.63333333333333,128.23146156372,0,-265.122944646381,116.156928289233,0,-227.626989629465,0,1.10192343655303,0,0,-0.0103840993021354,0,2951,0,-500,-30,0,-3.67394039744206e-15,0,0,3.14159265358979,0,0,0,0,-1.01891182686162,2832.53382569429
1.64166666666667,129.199310172173,0,-267.019386713093,116.126354288234,0,-227.518424922857,0,1.10183611115453,0,0,-0.0103991696907072,0,2950.75,0,-500,-30,0,-3.67394039744206e-15,0,0,3.14159265358979,0,0,0,0,-1.01945637286116,2831.16348991251
1.65,130.166904628013,0,-268.914925192545,116.09593371691,0,-227.410132529982,0,1.10174867699156,0,0,-0.0104141537402078,0,2950.5,0,-500,-30,0,-3.67394039744206e-15,0,0,3.14159265358979,0,0,0,0,-1.02000111090336,2829.79461268934
1.65833333333333,131.1342461983,0,-270.809562333001,116.065666049155,0,-227.302111611702,0,1.10166113181892,0,0,-0.0104290632650094,0,2950.25,0,-500,-30,0,-3.67394039744206e-15,0,0,3.14159265358979,0,0,0,0,-1.02054603921175,2828.42719255564
1.66666666666667,132.101336153784,0,-272.703300391549,116.035550424822,0,-227.194360648954,0,1.10157347227084,0,0,-0.0104439159323111,0,2950,0,-500,-30,0,-3.67394039744206e-15,0,0,3.14159265358979,0,0,0,0,-1.0210911548933,2827.06122804061
1.675,133.068175765217,0,-274.596141625278,116.005585983721,0,-227.086878122587,0,1.1014856949814,0,0,-0.0104587294100763,0,2949.75,0,-500,-30,0,-3.67394039744206e-15,0,0,3.14159265358979,0,0,0,0,-1.02163645505483,2825.69671767348
1.68333333333333,134.03476629972,0,-276.488088284317,115.975771955067,0,-226.979662648697,0,1.10139779656951,0,0,-0.0104735206873148,0,2949.5,0,-500,-30,0,-3.67394039744206e-15,0,0,3.14159265358979,0,0,0,0,-1.02218193678659,2824.33365999016
1.69166666666667,135.001109008522,0,-278.379142588348,115.946107959368,0,-226.872713435309,0,1.1013097735877,0,0,-0.0104883037815432,0,2949.25,0,-500,-30,0,-3.67394039744206e-15,0,0,3.14159265358979,0,0,0,0,-1.02272759710627,2822.97205355582
1.7,135.96720513851,0,-280.26930674872,115.916593724149,0,-226.766029852339,0,1.10122162257031,0,0,-0.0105030918975805,0,2949,0,-500,-30,0,-3.67394039744206e-15,0,0,3.14159265358979,0,0,0,0,-1.02327343301174,2821.61189694361
1.70833333333333,136.933055936568,0,-282.158582976784,115.887228976938,0,-226.659611269708,0,1.1011333400517,0,0,-0.0105178982402256,0,2948.75,0,-500,-30,0,-3.67394039744206e-15,0,0,3.14159265358979,0,0,0,0,-1.02381944150086,2820.25318872673
1.71666666666667,137.89866264819,0,-284.046973480181,115.858013436931,0,-226.553457012518,0,1.10104492289615,0,0,-0.0105327345535903,0,2948.5,0,-500,-30,0,-3.67394039744206e-15,0,0,3.14159265358979,0,0,0,0,-1.02436561990107,2818.89592748256
1.725,138.864026513201,0,-285.934480451411,115.828946789342,0,-226.447566223067,0,1.10095636931368,0,0,-0.0105476066238341,0,2948.25,0,-500,-30,0,-3.67394039744206e-15,0,0,3.14159265358979,0,0,0,0,-1.02491196688424,2817.54011180582
1.73333333333333,139.829148769977,0,-287.821106079115,115.800028710721,0,-226.34193799705,0,1.10086767785739,0,0,-0.0105625187182623,0,2948,0,-500,-30,0,-3.67394039744206e-15,0,0,3.14159265358979,0,0,0,0,-1.02545848146493,2816.18574029561
1.74166666666667,140.794030656897,0,-289.706852551934,115.771258877619,0,-226.236571430162,0,1.10077884708037,0,0,-0.0105774751041726,0,2947.75,0,-500,-30,0,-3.67394039744206e-15,0,0,3.14159265358979,0,0,0,0,-1.02600516265773,2814.83281155103
1.75,141.75867341051,0,-291.591722053356,115.742636973572,0,-226.131465631751,0,1.10068987591313,0,0,-0.0105924785108572,0,2947.5,0,-500,-30,0,-3.67394039744206e-15,0,0,3.14159265358979,0,0,0,0,-1.02655200985386,2813.48132417617
1.75833333333333,142.723078260421,0,-293.475716747276,115.714162708664,0,-226.026619763061,0,1.10060076472106,0,0,-0.0106075258206447,0,2947.25,0,-500,-30,0,-3.67394039744206e-15,0,0,3.14159265358979,0,0,0,0,-1.02709902387648,2812.13127679399
1.76666666666667,143.687246434582,0,-295.358838792929,115.685835799291,0,-225.922032997668,0,1.10051151421043,0,0,-0.0106226125266415,0,2947,0,-500,-30,0,-3.67394039744206e-15,0,0,3.14159265358979,0,0,0,0,-1.02764620588899,2810.78266803198
1.775,144.651179160947,0,-297.241090349556,115.657655961847,0,-225.817704509147,0,1.10042212508753,0,0,-0.0106377341219077,0,2946.75,0,-500,-30,0,-3.67394039744206e-15,0,0,3.14159265358979,0,0,0,0,-1.02819355705478,2809.43549651758
1.78333333333333,145.61487766556,0,-299.122473571344,115.629622902919,0,-225.713633474399,0,1.10033259830486,0,0,-0.0106528853109188,0,2946.5,0,-500,-30,0,-3.67394039744206e-15,0,0,3.14159265358979,0,0,0,0,-1.02874107878275,2808.08976088347
1.79166666666667,146.578343167707,0,-301.002990594597,115.601736294331,0,-225.609819082104,0,1.10024293568733,0,0,-0.0106680580034638,0,2946.25,0,-500,-30,0,-3.67394039744206e-15,0,0,3.14159265358979,0,0,0,0,-1.02928877335179,2806.74545978069
1.8,147.541576885175,0,-302.882643551654,115.573995800211,0,-225.506260523548,0,1.10015313925306,0,0,-0.0106832434905269,0,2946,0,-500,-30,0,-3.67394039744206e-15,0,0,3.14159265358979,0,0,0,0,-1.02983664323344,2805.40259186435
1.80833333333333,148.50458003575,0,-304.761434574855,115.546401084687,0,-225.402956990021,0,1.10006321102016,0,0,-0.0106984330630942,0,2945.75,0,-500,-30,0,-3.67394039744206e-15,0,0,3.14159265358979,0,0,0,0,-1.03038469089927,2804.0611557896
1.81666666666667,149.467353834791,0,-306.639365791317,115.518951800391,0,-225.299907682592,0,1.09997315306994,0,0,-0.0107136180216271,0,2945.5,0,-500,-30,0,-3.67394039744206e-15,0,0,3.14159265358979,0,0,0,0,-1.0309329188833,2802.72115021743
1.825,150.429899489636,0,-308.516439310898,115.491647561974,0,-225.197111834637,0,1.09988296769246,0,0,-0.010728789697901,0,2945.25,0,-500,-30,0,-3.67394039744206e-15,0,0,3.14159265358979,0,0,0,0,-1.03148132992605,2801.38257382832
1.83333333333333,151.392218205964,0,-310.392657239895,115.464487976252,0,-225.094568686202,0,1.09979265722085,0,0,-0.0107439394301514,0,2945,0,-500,-30,0,-3.67394039744206e-15,0,0,3.14159265358979,0,0,0,0,-1.03202992681065,2800.04542530674
1.84166666666667,152.354311189458,0,-312.268021684603,115.437472650036,0,-224.992277477335,0,1.0997022239882,0,0,-0.0107590585569418,0,2944.75,0,-500,-30,0,-3.67394039744206e-15,0,0,3.14159265358979,0,0,0,0,-1.03257871232015,2798.70970333719
1.85,153.316179642835,0,-314.142534746064,115.410601179535,0,-224.890237455996,0,1.0996116702286,0,0,-0.010774139047972,0,2944.5,0,-500,-30,0,-3.67394039744206e-15,0,0,3.14159265358979,0,0,0,0,-1.033127689138,2797.37540661072
1.85833333333333,154.277824759688,0,-316.016198509132,115.383873128276,0,-224.788447894538,0,1.09952099787091,0,0,-0.0107891748191323,0,2944.25,0,-500,-30,0,-3.67394039744206e-15,0,0,3.14159265358979,0,0,0,0,-1.03367685964038,2796.04253383875
1.86666666666667,155.239247731854,0,-317.889015055548,115.357288053507,0,-224.686908070005,0,1.09943020878534,0,0,-0.0108041601602563,0,2944,0,-500,-30,0,-3.67394039744206e-15,0,0,3.14159265358979,0,0,0,0,-1.03422622614445,2794.71108373654
1.875,156.200449751168,0,-319.760986467046,115.330845512467,0,-224.585617259442,0,1.09933930484186,0,0,-0.0108190893621388,0,2943.75,0,-500,-30,0,-3.67394039744206e-15,0,0,3.14159265358979,0,0,0,0,-1.03477579096716,2793.38105501942
1.88333333333333,157.161432006042,0,-321.632114820004,115.304545057375,0,-224.484574745556,0,1.09924828770195,0,0,-0.0108339576796701,0,2943.5,0,-500,-30,0,-3.67394039744206e-15,0,0,3.14159265358979,0,0,0,0,-1.03532555621629,2792.0524464099
1.89166666666667,158.122195675037,0,-323.502402175374,115.278386225988,0,-224.383779827338,0,1.0991571584267,0,0,-0.010848763143272,0,2943.25,0,-500,-30,0,-3.67394039744206e-15,0,0,3.14159265358979,0,0,0,0,-1.03587552339744,2790.72525665134
1.9,159.082741934951,0,-325.371850591347,115.252368553478,0,-224.283231806696,0,1.09906591796983,0,0,-0.010863504279811,0,2943,0,-500,-30,0,-3.67394039744206e-15,0,0,3.14159265358979,0,0,0,0,-1.03642569390849,2789.3994844908
1.90833333333333,160.043071962577,0,-327.240462126106,115.226491575017,0,-224.182929985537,0,1.09897456728464,0,0,-0.0108781796178876,0,2942.75,0,-500,-30,0,-3.67394039744206e-15,0,0,3.14159265358979,0,0,0,0,-1.0369760691469,2788.07512867539
1.91666666666667,161.003186931021,0,-329.108238832277,115.200754828062,0,-224.08287366771,0,1.09888310706228,0,0,-0.0108927887239523,0,2942.5,0,-500,-30,0,-3.67394039744206e-15,0,0,3.14159265358979,0,0,0,0,-1.03752665024735,2786.75218795986
1.925,161.963088003486,0,-330.975182747539,115.175157856203,0,-223.983062162269,0,1.09879153728894,0,0,-0.0109073339557866,0,2942.25,0,-500,-30,0,-3.67394039744206e-15,0,0,3.14159265358979,0,0,0,0,-1.03807743763774,2785.43066111965
1.93333333333333,162.922776341522,0,-332.841295907085,115.149700204051,0,-223.883494779139,0,1.09869985783351,0,0,-0.0109218181356495,0,2942,0,-500,-30,0,-3.67394039744206e-15,0,0,3.14159265358979,0,0,0,0,-1.0386284316284,2784.11054693364
1.94166666666667,163.882253106673,0,-334.706580346092,115.124381416244,0,-223.784170828236,0,1.09860806856419,0,0,-0.010936244088149,0,2941.75,0,-500,-30,0,-3.67394039744206e-15,0,0,3.14159265358979,0,0,0,0,-1.03917963252895,2782.79184418071
1.95,164.84151945678,0,-336.571038093853,115.099201047335,0,-223.685089617674,0,1.09851616908042,0,0,-0.0109506155568959,0,2941.5,0,-500,-30,0,-3.67394039744206e-15,0,0,3.14159265358979,0,0,0,0,-1.03973104037954,2781.47455164767
1.95833333333333,165.800576540387,0,-338.434671164865,115.074158676814,0,-223.586250451022,0,1.09842415830595,0,0,-0.010964938596193,0,2941.25,0,-500,-30,0,-3.67394039744206e-15,0,0,3.14159265358979,0,0,0,0,-1.04028265454272,2780.15866814115
1.96666666666667,166.759425504595,0,-340.297481571334,115.049253888025,0,-223.487652631149,0,1.09833203506,0,0,-0.0109792196177701,0,2941,0,-500,-30,0,-3.67394039744206e-15,0,0,3.14159265358979,0,0,0,0,-1.04083447427626,2778.8441924709
1.975,167.718067496496,0,-342.159471325447,115.024486264376,0,-223.389295460903,0,1.0982397981609,0,0,-0.0109934650358398,0,2940.75,0,-500,-30,0,-3.67394039744206e-15,0,0,3.14159265358979,0,0,0,0,-1.04138649883702,2777.53112344665
1.98333333333333,168.676503659714,0,-344.020642433048,114.999855405827,0,-223.291178238031,0,1.09814744618697,0,0,-0.0110076819420985,0,2940.5,0,-500,-30,0,-3.67394039744206e-15,0,0,3.14159265358979,0,0,0,0,-1.04193872724096,2776.21945988604
1.99166666666667,169.634735129732,0,-345.880996885074,114.975360951281,0,-223.193300248277,0,1.09805497715184,0,0,-0.0110218790218203,0,2940.25,0,-500,-30,0,-3.67394039744206e-15,0,0,3.14159265358979,0,0,0,0,-1.04249115793732,2774.9092006252
2,170.592763040856,0,-347.740536670319,114.951002545234,0,-223.09566077566,0,1.09796238898805,0,0,-0.0110360651892129,0,2940,0,-500,-30,0,-3.67394039744206e-15,0,0,3.14159265358979,0,0,0,0,-1.04304378929395,2773.60034450292
2.00833333333333,171.550588527382,0,-349.599263777542,114.926779832287,0,-222.998259104162,0,1.09786967962721,0,0,-0.0110502493603195,0,2939.75,0,-500,-30,0,-3.67394039744206e-15,0,0,3.14159265358979,0,0,0,0,-1.04359661967774,2772.29289035802
2.01666666666667,172.508212720592,0,-351.457180188602,114.902692478442,0,-222.901094510283,0,1.09777684681521,0,0,-0.01106444081798,0,2939.5,0,-500,-30,0,-3.67394039744206e-15,0,0,3.14159265358979,0,0,0,0,-1.04414964726883,2770.98683703698
2.025,173.465636745141,0,-353.314287870157,114.87874019682,0,-222.804166254043,0,1.09768388788898,0,0,-0.0110786496527206,0,2939.25,0,-500,-30,0,-3.67394039744206e-15,0,0,3.14159265358979,0,0,0,0,-1.04470286983607,2769.68218340302
2.03333333333333,174.422861724796,0,-355.170588786842,114.854922706821,0,-222.707473593267,0,1.09759080013094,0,0,-0.0110928860627156,0,2939,0,-500,-30,0,-3.67394039744206e-15,0,0,3.14159265358979,0,0,0,0,-1.04525628509351,2768.37892832163
2.04166666666667,175.379888783313,0,-357.026084903241,114.831239728003,0,-222.611015785721,0,1.09749758082278,0,0,-0.0111071602463013,0,2938.75,0,-500,-30,0,-3.67394039744206e-15,0,0,3.14159265358979,0,0,0,0,-1.04580989075442,2767.07707065834
2.05,176.336719042045,0,-358.880778176396,114.807691003876,0,-222.514792080469,0,1.09740422713329,0,0,-0.0111214824264206,0,2938.5,0,-500,-30,0,-3.67394039744206e-15,0,0,3.14159265358979,0,0,0,0,-1.04636368441795,2765.77660928589
2.05833333333333,177.293353617392,0,-360.734670547789,114.784276327351,0,-222.418801708611,0,1.09731073599837,0,0,-0.0111358628767733,0,2938.25,0,-500,-30,0,-3.67394039744206e-15,0,0,3.14159265358979,0,0,0,0,-1.04691766344774,2764.47754309193
2.06666666666667,178.249793625147,0,-362.58776395698,114.760995497443,0,-222.323043899034,0,1.09721710432517,0,0,-0.0111503118773281,0,2938,0,-500,-30,0,-3.67394039744206e-15,0,0,3.14159265358979,0,0,0,0,-1.04747182517834,2763.17987096594
2.075,179.206040181084,0,-364.440060343462,114.737848313367,0,-222.22751788055,0,1.09712332902061,0,0,-0.0111648397053585,0,2937.75,0,-500,-30,0,-3.67394039744206e-15,0,0,3.14159265358979,0,0,0,0,-1.04802616694407,2761.88359179744
2.08333333333333,180.16209439927,0,-366.291561638502,114.714834598308,0,-222.132222873333,0,1.09702940696415,0,0,-0.0111794563172818,0,2937.5,0,-500,-30,0,-3.67394039744206e-15,0,0,3.14159265358979,0,0,0,0,-1.04858068605031,2760.5887044827
2.09166666666667,181.11795739047,0,-368.142269757473,114.691954221795,0,-222.037158080861,0,1.09693533498219,0,0,-0.0111941710491418,0,2937.25,0,-500,-30,0,-3.67394039744206e-15,0,0,3.14159265358979,0,0,0,0,-1.0491353797465,2759.29520793099
2.1,182.07363026507,0,-369.992186613929,114.669207058654,0,-221.9423227047,0,1.09684110989507,0,0,-0.0112089931660915,0,2937,0,-500,-30,0,-3.67394039744206e-15,0,0,3.14159265358979,0,0,0,0,-1.04969024527567,2758.00310105305
2.10833333333333,183.029114133445,0,-371.841314121332,114.646592983933,0,-221.847715946342,0,1.09674672852381,0,0,-0.0112239319265377,0,2936.75,0,-500,-30,0,-3.67394039744206e-15,0,0,3.14159265358979,0,0,0,0,-1.05024527988154,2756.7123827597
2.11666666666667,183.984410104949,0,-373.68965418425,114.6241118941,0,-221.753337000025,0,1.09665218775415,0,0,-0.0112389959440565,0,2936.5,0,-500,-30,0,-3.67394039744206e-15,0,0,3.14159265358979,0,0,0,0,-1.05080048087082,2755.42305196798
2.125,184.939519287087,0,-375.53720869112,114.601763724458,0,-221.65918504684,0,1.09655748458926,0,0,-0.0112541926628929,0,2936.25,0,-500,-30,0,-3.67394039744206e-15,0,0,3.14159265358979,0,0,0,0,-1.05135584566454,2754.13510760624
2.13333333333333,185.894442787166,0,-377.383979528675,114.579548414409,0,-221.565259266486,0,1.09646261604468,0,0,-0.0112695294038478,0,2936,0,-500,-30,0,-3.67394039744206e-15,0,0,3.14159265358979,0,0,0,0,-1.05191137169579,2752.84854860398
2.14166666666667,186.849181712489,0,-379.229968583528,114.557465903568,0,-221.471558838606,0,1.09636757913796,0,0,-0.0112850134759297,0,2935.75,0,-500,-30,0,-3.67394039744206e-15,0,0,3.14159265358979,0,0,0,0,-1.05246705639963,2751.56337389081
2.15,187.803737169935,0,-381.075177732778,114.535516147999,0,-221.378082938214,0,1.09627237104366,0,0,-0.0113006512650196,0,2935.5,0,-500,-30,0,-3.67394039744206e-15,0,0,3.14159265358979,0,0,0,0,-1.05302289736621,2750.27958240214
2.15833333333333,188.758110265658,0,-382.919608837331,114.513699131763,0,-221.284830732455,0,1.09617698920352,0,0,-0.0113164475861447,0,2935.25,0,-500,-30,0,-3.67394039744206e-15,0,0,3.14159265358979,0,0,0,0,-1.05357889244962,2748.99717308324
2.16666666666667,189.712302105744,0,-384.763263756518,114.492014841647,0,-221.191801387707,0,1.09608143108526,0,0,-0.0113324071014036,0,2935,0,-500,-30,0,-3.67394039744206e-15,0,0,3.14159265358979,0,0,0,0,-1.0541350395296,2747.71614488036
2.175,190.666313796277,0,-386.606144349516,114.47046326458,0,-221.098994070333,0,1.09598569416034,0,0,-0.0113485344555205,0,2934.75,0,-500,-30,0,-3.67394039744206e-15,0,0,3.14159265358979,0,0,0,0,-1.0546913364896,2746.43649673984
2.18333333333333,191.620146443341,0,-388.448252465463,114.449044396924,0,-221.006407945761,0,1.09588977614224,0,0,-0.0113648331605936,0,2934.5,0,-500,-30,0,-3.67394039744206e-15,0,0,3.14159265358979,0,0,0,0,-1.05524778145299,2745.15822761354
2.19166666666667,192.573801153014,0,-390.289589937458,114.4277582501,0,-220.914042177928,0,1.09579367513106,0,0,-0.0113813049192412,0,2934.25,0,-500,-30,0,-3.67394039744206e-15,0,0,3.14159265358979,0,0,0,0,-1.05580437292648,2743.8813364622
2.2,193.527279031373,0,-392.130158597167,114.406604836881,0,-220.821895930635,0,1.09569738926159,0,0,-0.0113979512719515,0,2934,0,-500,-30,0,-3.67394039744206e-15,0,0,3.14159265358979,0,0,0,0,-1.05636110945111,2742.60582224735
2.20833333333333,194.4805811845,0,-393.969960276063,114.385584170057,0,-220.729968367749,0,1.09560091667427,0,0,-0.0114147737364372,0,2933.75,0,-500,-30,0,-3.67394039744206e-15,0,0,3.14159265358979,0,0,0,0,-1.05691798957357,2741.33168393061
2.21666666666667,195.43370871865,0,-395.808996795191,114.364696263298,0,-220.638258656686,0,1.09550425582207,0,0,-0.0114317725762892,0,2933.5,0,-500,-30,0,-3.67394039744206e-15,0,0,3.14159265358979,0,0,0,0,-1.05747501215088,2740.05892047912
2.225,196.386662740342,0,-397.647269959949,114.343941131601,0,-220.546765970194,0,1.09540740562695,0,0,-0.0114489461732369,0,2933.25,0,-500,-30,0,-3.67394039744206e-15,0,0,3.14159265358979,0,0,0,0,-1.05803217650573,2738.78753086831
2.23333333333333,197.339444356115,0,-399.484781574446,114.323318790074,0,-220.455489481456,0,1.09531036504945,0,0,-0.0114662927541675,0,2933,0,-500,-30,0,-3.67394039744206e-15,0,0,3.14159265358979,0,0,0,0,-1.05858948199915,2737.51751407425
2.24166666666667,198.29205467251,0,-401.321533442565,114.302829253639,0,-220.364428363839,0,1.09521313305782,0,0,-0.0114838105188806,0,2932.75,0,-500,-30,0,-3.67394039744206e-15,0,0,3.14159265358979,0,0,0,0,-1.0591469279998,2736.24886907318
2.25,199.244494796125,0,-403.157527357531,114.282472528717,0,-220.273581799194,0,1.09511570898259,0,0,-0.0115014963919569,0,2932.5,0,-500,-30,0,-3.67394039744206e-15,0,0,3.14159265358979,0,0,0,0,-1.05970451423638,2734.98159484709
2.25833333333333,200.196765833636,0,-404.992765097544,114.262248609731,0,-220.182948981338,0,1.09501809266509,0,0,-0.0115193455000239,0,2932.25,0,-500,-30,0,-3.67394039744206e-15,0,0,3.14159265358979,0,0,0,0,-1.06026224094521,2733.71569038607
2.26666666666667,201.148868891726,0,-406.827248439672,114.242157490202,0,-220.092529104991,0,1.09492028398516,0,0,-0.0115373528341917,0,2932,0,-500,-30,0,-3.67394039744206e-15,0,0,3.14159265358979,0,0,0,0,-1.06082010840089,2732.45115468088
2.275,202.100805077069,0,-408.660979160718,114.222199163208,0,-220.002321365203,0,1.09482228283213,0,0,-0.0115555133562524,0,2931.75,0,-500,-30,0,-3.67394039744206e-15,0,0,3.14159265358979,0,0,0,0,-1.06137811688744,2731.18798672238
2.28333333333333,203.05257549595,0,-410.493959026778,114.202373603849,0,-219.912324970505,0,1.09472408948216,0,0,-0.0115738208355741,0,2931.5,0,-500,-30,0,-3.67394039744206e-15,0,0,3.14159265358979,0,0,0,0,-1.06193626707347,2729.9261855078
2.29166666666667,204.004181254148,0,-412.326189789757,114.182680763403,0,-219.822539147292,0,1.09462570472395,0,0,-0.0115922674613319,0,2931.25,0,-500,-30,0,-3.67394039744206e-15,0,0,3.14159265358979,0,0,0,0,-1.06249456013717,2728.66575004275
2.3,204.955623457402,0,-414.157673200581,114.163120591504,0,-219.732963123191,0,1.09452712938151,0,0,-0.0116108453138969,0,2931,0,-500,-30,0,-3.67394039744206e-15,0,0,3.14159265358979,0,0,0,0,-1.06305299729182,2727.40667933342
2.30833333333333,205.906903211421,0,-415.98841100988,114.143693037036,0,-219.643596126337,0,1.09442836428967,0,0,-0.0116295464451013,0,2930.75,0,-500,-30,0,-3.67394039744206e-15,0,0,3.14159265358979,0,0,0,0,-1.06361157976146,2726.14897238619
2.31666666666667,206.85802162076,0,-417.818404957702,114.124398022126,0,-219.554437403,0,1.09432941066717,0,0,-0.0116483618948168,0,2930.5,0,-500,-30,0,-3.67394039744206e-15,0,0,3.14159265358979,0,0,0,0,-1.06417030915187,2724.89262821466
2.325,207.808979788539,0,-419.647656770912,114.10523543557,0,-219.46548622204,0,1.09423027021098,0,0,-0.0116672814421214,0,2930.25,0,-500,-30,0,-3.67394039744206e-15,0,0,3.14159265358979,0,0,0,0,-1.06472918754438,2723.63764584144
2.33333333333333,208.759778817786,0,-421.47616817555,114.086205164077,0,-219.376741853732,0,1.09413094464812,0,0,-0.0116862947870322,0,2930,0,-500,-30,0,-3.67394039744206e-15,0,0,3.14159265358979,0,0,0,0,-1.06528821705015,2722.38402428968
2.34166666666667,209.710419811461,0,-423.303940897325,114.067307093257,0,-219.288203569063,0,1.09403143571692,0,0,-0.0117053916055417,0,2929.75,0,-500,-30,0,-3.67394039744206e-15,0,0,3.14159265358979,0,0,0,0,-1.06584739979164,2721.13176258281
2.35,210.660903870302,0,-425.130976651661,114.048541074607,0,-219.199870661087,0,1.09393174550953,0,0,-0.0117245608250507,0,2929.5,0,-500,-30,0,-3.67394039744206e-15,0,0,3.14159265358979,0,0,0,0,-1.06640673824306,2719.88085975263
2.35833333333333,211.611232092449,0,-426.957277141931,114.029906919653,0,-219.111742448715,0,1.09383187653262,0,0,-0.0117437904959241,0,2929.25,0,-500,-30,0,-3.67394039744206e-15,0,0,3.14159265358979,0,0,0,0,-1.06696623529077,2718.6313148408
2.36666666666667,212.561405575893,0,-428.782844070824,114.011404437647,0,-219.02381825233,0,1.09373183131645,0,0,-0.0117630686186112,0,2929,0,-500,-30,0,-3.67394039744206e-15,0,0,3.14159265358979,0,0,0,0,-1.06752589384457,2717.38312688953
2.375,213.511425418497,0,-430.60767914067,113.993033436409,0,-218.936097393221,0,1.09363161240212,0,0,-0.0117823831781589,0,2928.75,0,-500,-30,0,-3.67394039744206e-15,0,0,3.14159265358979,0,0,0,0,-1.06808571682505,2716.13629494138
2.38333333333333,214.461292714592,0,-432.431784043954,113.974793684287,0,-218.848579217661,0,1.09353122263,0,0,-0.0118017217349149,0,2928.5,0,-500,-30,0,-3.67394039744206e-15,0,0,3.14159265358979,0,0,0,0,-1.06864570745019,2714.89081804873
2.39166666666667,215.411008554613,0,-434.255160462308,113.956684906134,0,-218.76126309945,0,1.09343066517019,0,0,-0.0118210713812644,0,2928.25,0,-500,-30,0,-3.67394039744206e-15,0,0,3.14159265358979,0,0,0,0,-1.06920586926568,2713.64669527478
2.4,216.360574028795,0,-436.07781007681,113.938706824565,0,-218.674148413804,0,1.09332994320975,0,0,-0.0118404191855119,0,2928,0,-500,-30,0,-3.67394039744206e-15,0,0,3.14159265358979,0,0,0,0,-1.06976620583406,2712.40392568326
2.40833333333333,217.309990227168,0,-437.899734568155,113.920859160468,0,-218.587234537026,0,1.09322905994492,0,0,-0.0118597522132342,0,2927.75,0,-500,-30,0,-3.67394039744206e-15,0,0,3.14159265358979,0,0,0,0,-1.07032672072697,2711.16250833841
2.41666666666667,218.259258234735,0,-439.720935607739,113.903141592325,0,-218.500520872068,0,1.09312801879677,0,0,-0.0118790574630417,0,2927.5,0,-500,-30,0,-3.67394039744206e-15,0,0,3.14159265358979,0,0,0,0,-1.07088741773924,2709.92244231585
2.425,219.208379131287,0,-441.541414857319,113.885553754664,0,-218.414006849504,0,1.09302682341943,0,0,-0.0118983218641405,0,2927.25,0,-500,-30,0,-3.67394039744206e-15,0,0,3.14159265358979,0,0,0,0,-1.07144830089708,2708.68372670306
2.43333333333333,220.157353996374,0,-443.361173978205,113.86809527998,0,-218.327691901186,0,1.09292547747782,0,0,-0.0119175323425218,0,2927,0,-500,-30,0,-3.67394039744206e-15,0,0,3.14159265358979,0,0,0,0,-1.07200937423738,2707.44636058805
2.44166666666667,221.106183909246,0,-445.180214631312,113.850765798824,0,-218.241575460191,0,1.09282398464308,0,0,-0.0119366758376775,0,2926.75,0,-500,-30,0,-3.67394039744206e-15,0,0,3.14159265358979,0,0,0,0,-1.0725706418032,2706.21034305946
2.45,222.054869942534,0,-446.998538468865,113.833564899042,0,-218.155656986553,0,1.09272234872281,0,0,-0.0119557395858434,0,2926.5,0,-500,-30,0,-3.67394039744206e-15,0,0,3.14159265358979,0,0,0,0,-1.07313210777266,2704.97567321901
2.45833333333333,223.00341316242,0,-448.816147134619,113.816492126852,0,-218.069935966578,0,1.09262057365767,0,0,-0.0119747111125364,0,2926.25,0,-500,-30,0,-3.67394039744206e-15,0,0,3.14159265358979,0,0,0,0,-1.07369377645553,2703.74235018125
2.46666666666667,223.951814634816,0,-450.633042271976,113.799547026744,0,-217.984411887663,0,1.09251866339386,0,0,-0.0119935779552822,0,2926,0,-500,-30,0,-3.67394039744206e-15,0,0,3.14159265358979,0,0,0,0,-1.07425565216709,2702.51037306124
2.475,224.900075425223,0,-452.449225523933,113.782729141166,0,-217.899084238516,0,1.09241662187961,0,0,-0.0120123276839362,0,2925.75,0,-500,-30,0,-3.67394039744206e-15,0,0,3.14159265358979,0,0,0,0,-1.07481773922458,2701.2797409748
2.48333333333333,225.848196590926,0,-454.264698525427,113.766037972211,0,-217.813952533723,0,1.09231445310399,0,0,-0.0120309485076059,0,2925.5,0,-500,-30,0,-3.67394039744206e-15,0,0,3.14159265358979,0,0,0,0,-1.07538004198491,2700.0504530526
2.49166666666667,226.796179181686,0,-456.079462904007,113.749472984966,0,-217.729016311601,0,1.09221216109351,0,0,-0.0120494292215543,0,2925.25,0,-500,-30,0,-3.67394039744206e-15,0,0,3.14159265358979,0,0,0,0,-1.07594256484129,2698.82250843888
2.5,227.744024246983,0,-457.893520286946,113.733033643152,0,-217.644275111347,0,1.09210974987603,0,0,-0.0120677586427304,0,2925,0,-500,-30,0,-3.67394039744206e-15,0,0,3.14159265358979,0,0,0,0,-1.0765053121883,2697.59590627842
2.50833333333333,228.691732835754,0,-459.706872301103,113.716719408497,0,-217.559728473473,0,1.09200722347634,0,0,-0.0120859256405426,0,2924.75,0,-500,-30,0,-3.67394039744206e-15,0,0,3.14159265358979,0,0,0,0,-1.07706828841736,2696.3706457169
2.51666666666667,229.639305987218,0,-461.519520565882,113.700529707178,0,-217.475375962015,0,1.09190458586379,0,0,-0.0121039200216071,0,2924.5,0,-500,-30,0,-3.67394039744206e-15,0,0,3.14159265358979,0,0,0,0,-1.07763149786348,2695.1467259165
2.525,230.586744732211,0,-463.331466694255,113.684463934705,0,-217.391217161294,0,1.09180184095991,0,0,-0.0121217324007851,0,2924.25,0,-500,-30,0,-3.67394039744206e-15,0,0,3.14159265358979,0,0,0,0,-1.078194944813,2693.92414605356
2.53333333333333,231.534050101298,0,-465.142712298987,113.668521485587,0,-217.3072516563,0,1.09169899268469,0,0,-0.012139353419427,0,2924,0,-500,-30,0,-3.67394039744206e-15,0,0,3.14159265358979,0,0,0,0,-1.07875863355068,2692.70290530493
2.54166666666667,232.481223124357,0,-466.953258992414,113.652701752562,0,-217.223479033256,0,1.09159604494907,0,0,-0.0121567737912151,0,2923.75,0,-500,-30,0,-3.67394039744206e-15,0,0,3.14159265358979,0,0,0,0,-1.07932256835222,2691.48300284854
2.55,233.428264820213,0,-468.763108379952,113.637004099713,0,-217.139898898448,0,1.09149300151803,0,0,-0.0121739854019519,0,2923.5,0,-500,-30,0,-3.67394039744206e-15,0,0,3.14159265358979,0,0,0,0,-1.07988675334648,2690.26443788028
2.55833333333333,234.375176198721,0,-470.572262061404,113.62142786788,0,-217.056510874432,0,1.09138986603808,0,0,-0.0121909810880096,0,2923.25,0,-500,-30,0,-3.67394039744206e-15,0,0,3.14159265358979,0,0,0,0,-1.08045119254326,2689.04720961058
2.56666666666667,235.321958269481,0,-472.380721636411,113.605972397234,0,-216.973314584231,0,1.09128664215237,0,0,-0.0122077537131711,0,2923,0,-500,-30,0,-3.67394039744206e-15,0,0,3.14159265358979,0,0,0,0,-1.08101588994892,2687.83131725028
2.575,236.268612041265,0,-474.188488704175,113.59063702658,0,-216.890309651935,0,1.09118333348872,0,0,-0.0122242962315044,0,2922.75,0,-500,-30,0,-3.67394039744206e-15,0,0,3.14159265358979,0,0,0,0,-1.08158084955449,2686.61676001156
2.58333333333333,237.21513851069,0,-475.995564857401,113.575421074573,0,-216.807495717374,0,1.0910799434494,0,0,-0.0122406029287848,0,2922.5,0,-500,-30,0,-3.67394039744206e-15,0,0,3.14159265358979,0,0,0,0,-1.08214607512472,2685.40353712573
2.59166666666667,238.161538665106,0,-477.801951683848,113.560323844506,0,-216.724872432374,0,1.09097647526468,0,0,-0.0122566691061903,0,2922.25,0,-500,-30,0,-3.67394039744206e-15,0,0,3.14159265358979,0,0,0,0,-1.08271157025187,2684.19164783874
2.6,239.107813491627,0,-479.607650771145,113.545344639283,0,-216.642439449065,0,1.09087293216053,0,0,-0.0122724900904615,0,2922,0,-500,-30,0,-3.67394039744206e-15,0,0,3.14159265358979,0,0,0,0,-1.08327733852382,2682.98109139693
2.60833333333333,240.053963976407,0,-481.412663706463,113.530482761023,0,-216.560196420382,0,1.09076931734135,0,0,-0.012288061313049,0,2921.75,0,-500,-30,0,-3.67394039744206e-15,0,0,3.14159265358979,0,0,0,0,-1.08384338350691,2681.77186704809
2.61666666666667,240.999991092634,0,-483.216992070773,113.515737501251,0,-216.478143010102,0,1.09066563372157,0,0,-0.0123033796156055,0,2921.5,0,-500,-30,0,-3.67394039744206e-15,0,0,3.14159265358979,0,0,0,0,-1.08440970847681,2680.56397406017
2.625,241.94589580421,0,-485.020637440599,113.501108143896,0,-216.396278889776,0,1.09056188400778,0,0,-0.0123184428504739,0,2921.25,0,-500,-30,0,-3.67394039744206e-15,0,0,3.14159265358979,0,0,0,0,-1.08497631650092,2679.35741171551
2.63333333333333,242.891679074832,0,-486.823601392369,113.486593972724,0,-216.31460373112,0,1.09045807090204,0,0,-0.0123332488920146,0,2921,0,-500,-30,0,-3.67394039744206e-15,0,0,3.14159265358979,0,0,0,0,-1.0855432106421,2678.15217929678
2.64166666666667,243.837341867108,0,-488.62588550202,113.472194271452,0,-216.233117206314,0,1.09035419707911,0,0,-0.0123477957287406,0,2920.75,0,-500,-30,0,-3.67394039744206e-15,0,0,3.14159265358979,0,0,0,0,-1.08611039393586,2676.94827608833
2.65,244.782885130205,0,-490.427491339427,113.457908323204,0,-216.151818993224,0,1.0902502648773,0,0,-0.0123620827568396,0,2920.5,0,-500,-30,0,-3.67394039744206e-15,0,0,3.14159265358979,0,0,0,0,-1.0866778690806,2675.74570139524
2.65833333333333,245.728309804238,0,-492.228420470382,113.443735410706,0,-216.070708773544,0,1.0901462764083,0,0,-0.0123761103205028,0,2920.25,0,-500,-30,0,-3.67394039744206e-15,0,0,3.14159265358979,0,0,0,0,-1.08724563854767,2674.54445453654
2.66666666666667,246.673616829152,0,-494.028674460602,113.429674816675,0,-215.989786229037,0,1.09004223377956,0,0,-0.0123898787816106,0,2920,0,-500,-30,0,-3.67394039744206e-15,0,0,3.14159265358979,0,0,0,0,-1.08781370480419,2673.34453483153
2.675,247.618807143695,0,-495.828254875265,113.415725824649,0,-215.909051041522,0,1.08993813906643,0,0,-0.0124033886195345,0,2919.75,0,-500,-30,0,-3.67394039744206e-15,0,0,3.14159265358979,0,0,0,0,-1.08838207028509,2672.14594160138
2.68333333333333,248.563881673034,0,-497.627163273466,113.401887727435,0,-215.828502893383,0,1.08983399398056,0,0,-0.0124166416436107,0,2919.5,0,-500,-30,0,-3.67394039744206e-15,0,0,3.14159265358979,0,0,0,0,-1.08895073706088,2670.94867418823
2.69166666666667,249.508841333747,0,-499.425401210454,113.388159823707,0,-215.748141467368,0,1.08972980000352,0,0,-0.012429640504489,0,2919.25,0,-500,-30,0,-3.67394039744206e-15,0,0,3.14159265358979,0,0,0,0,-1.08951970697156,2669.75273194752
2.7,250.453687042278,0,-501.222970241416,113.37454141223,0,-215.667966446228,0,1.08962555861327,0,0,-0.0124423878661081,0,2919,0,-500,-30,0,-3.67394039744206e-15,0,0,3.14159265358979,0,0,0,0,-1.0900889818535,2668.55811423488
2.70833333333333,251.398419713785,0,-503.019871920936,113.361031793543,0,-215.587977512311,0,1.08952127125208,0,0,-0.0124548865064338,0,2918.75,0,-500,-30,0,-3.67394039744206e-15,0,0,3.14159265358979,0,0,0,0,-1.09065856350728,2667.36482040797
2.71666666666667,252.343040250044,0,-504.81610779734,113.347630286646,0,-215.508174343739,0,1.08941693899052,0,0,-0.0124671403909672,0,2918.5,0,-500,-30,0,-3.67394039744206e-15,0,0,3.14159265358979,0,0,0,0,-1.09122845336095,2666.17284984536
2.725,253.287549544884,0,-506.61167941523,113.334336221506,0,-215.428556616122,0,1.08931256267843,0,0,-0.0124791541905357,0,2918.25,0,-500,-30,0,-3.67394039744206e-15,0,0,3.14159265358979,0,0,0,0,-1.09179865262129,2664.98220193805
2.73333333333333,254.231948492032,0,-508.406588319163,113.321148928233,0,-215.349124005042,0,1.0892081431627,0,0,-0.0124909325852686,0,2918,0,-500,-30,0,-3.67394039744206e-15,0,0,3.14159265358979,0,0,0,0,-1.09236916249215,2663.79287607718
2.74166666666667,255.176237983871,0,-510.200836053007,113.308067739702,0,-215.269876185194,0,1.08910368125259,0,0,-0.0125024803587635,0,2917.75,0,-500,-30,0,-3.67394039744206e-15,0,0,3.14159265358979,0,0,0,0,-1.09293998413962,2662.60487165605
2.75,256.120418899912,0,-511.994424154044,113.295092015315,0,-215.190812822817,0,1.08899917739578,0,0,-0.0125138032880306,0,2917.5,0,-500,-30,0,-3.67394039744206e-15,0,0,3.14159265358979,0,0,0,0,-1.09351111836717,2661.41818808847
2.75833333333333,257.064492112493,0,-513.787354155886,113.282221129261,0,-215.111933579432,0,1.08889463183843,0,0,-0.0125249077038023,0,2917.25,0,-500,-30,0,-3.67394039744206e-15,0,0,3.14159265358979,0,0,0,0,-1.09408256577614,2660.23282479969
2.76666666666667,258.008458493872,0,-515.579627592102,113.269454455891,0,-215.033238116507,0,1.08879004482449,0,0,-0.01253579994281,0,2917,0,-500,-30,0,-3.67394039744206e-15,0,0,3.14159265358979,0,0,0,0,-1.09465432696567,2659.04878121505
2.775,258.952318914946,0,-517.371245995471,113.25679137329,0,-214.954726094165,0,1.08868541656011,0,0,-0.012546486427768,0,2916.75,0,-500,-30,0,-3.67394039744206e-15,0,0,3.14159265358979,0,0,0,0,-1.09522640249695,2657.86605676218
2.78333333333333,259.896074234517,0,-519.162210891731,113.24423129266,0,-214.876397160578,0,1.08858074691608,0,0,-0.0125569743438323,0,2916.5,0,-500,-30,0,-3.67394039744206e-15,0,0,3.14159265358979,0,0,0,0,-1.09579879259451,2656.68465088849
2.79166666666667,260.839725305068,0,-520.952523802943,113.231773642523,0,-214.798250957668,0,1.08847603558788,0,0,-0.012567271274779,0,2916.25,0,-500,-30,0,-3.67394039744206e-15,0,0,3.14159265358979,0,0,0,0,-1.09637149730687,2655.50456305178
2.8,261.783272979025,0,-522.742186251135,113.219417851547,0,-214.720287127306,0,1.08837128226944,0,0,-0.0125773848078634,0,2916,0,-500,-30,0,-3.67394039744206e-15,0,0,3.14159265358979,0,0,0,0,-1.09694451668102,2654.32579270991
2.80833333333333,262.726718107462,0,-524.531199757409,113.207163353036,0,-214.642505309583,0,1.08826648661862,0,0,-0.0125873225926344,0,2915.75,0,-500,-30,0,-3.67394039744206e-15,0,0,3.14159265358979,0,0,0,0,-1.09751785072767,2653.14833932308
2.81666666666667,263.670061530363,0,-526.31956583528,113.195009618289,0,-214.564905130027,0,1.08816164799731,0,0,-0.012597092789627,0,2915.5,0,-500,-30,0,-3.67394039744206e-15,0,0,3.14159265358979,0,0,0,0,-1.09809149915998,2651.97220237037
2.825,264.613304082277,0,-528.107285994545,113.182956137225,0,-214.487486207026,0,1.08805676562235,0,0,-0.0126067038098157,0,2915.25,0,-500,-30,0,-3.67394039744206e-15,0,0,3.14159265358979,0,0,0,0,-1.09866546154529,2650.7973813401
2.83333333333333,265.556446597715,0,-529.894361744974,113.171002399895,0,-214.41024815892,0,1.0879518387096,0,0,-0.0126161640658951,0,2915,0,-500,-30,0,-3.67394039744206e-15,0,0,3.14159265358979,0,0,0,0,-1.09923973744992,2649.62387572068
2.84166666666667,266.49948990988,0,-531.680794595257,113.159147901749,0,-214.33319060191,0,1.08784686644245,0,0,-0.0126254820040008,0,2914.75,0,-500,-30,0,-3.67394039744206e-15,0,0,3.14159265358979,0,0,0,0,-1.0998143264075,2648.45168500286
2.85,267.442434842051,0,-533.466586045877,113.147392179277,0,-214.25631313596,0,1.08774184775769,0,0,-0.0126346663243854,0,2914.5,0,-500,-30,0,-3.67394039744206e-15,0,0,3.14159265358979,0,0,0,0,-1.10038922770318,2647.28080869514
2.85833333333333,268.385282212947,0,-535.251737593548,113.135734787818,0,-214.179615353577,0,1.0876367814789,0,0,-0.0126437258439833,0,2914.25,0,-500,-30,0,-3.67394039744206e-15,0,0,3.14159265358979,0,0,0,0,-1.10096444050798,2646.11124631421
2.86666666666667,269.328032841264,0,-537.036250734964,113.124175282806,0,-214.10309684723,0,1.08753166642905,0,0,-0.0126526693803416,0,2914,0,-500,-30,0,-3.67394039744206e-15,0,0,3.14159265358979,0,0,0,0,-1.10153996399234,2644.94299737681
2.875,270.270687544468,0,-538.820126965562,113.112713225672,0,-214.026757206979,0,1.08742650140407,0,0,-0.012661505751768,0,2913.75,0,-500,-30,0,-3.67394039744206e-15,0,0,3.14159265358979,0,0,0,0,-1.10211579729935,2643.77606140201
2.88333333333333,271.213247131364,0,-540.603367771915,113.101348220091,0,-213.950596005928,0,1.08732128500935,0,0,-0.0126702437819322,0,2913.5,0,-500,-30,0,-3.67394039744206e-15,0,0,3.14159265358979,0,0,0,0,-1.10269193937931,2642.61043792543
2.89166666666667,272.15571240703,0,-542.385974636786,113.090079887898,0,-213.874612809887,0,1.08721601576835,0,0,-0.0126788922968087,0,2913.25,0,-500,-30,0,-3.67394039744206e-15,0,0,3.14159265358979,0,0,0,0,-1.10326838909967,2641.4461264898
2.9,273.098084176531,0,-544.167949042922,113.078907851001,0,-213.798807184641,0,1.08711069220423,0,0,-0.0126874601223809,0,2913,0,-500,-30,0,-3.67394039744206e-15,0,0,3.14159265358979,0,0,0,0,-1.10384514532756,2640.28312663788
2.90833333333333,274.040363243809,0,-545.949292471615,113.067831737677,0,-213.723178693412,0,1.08700531282007,0,0,-0.012695956050552,0,2912.75,0,-500,-30,0,-3.67394039744206e-15,0,0,3.14159265358979,0,0,0,0,-1.10442220690963,2639.12143791477
2.91666666666667,274.982550405444,0,-547.730006394632,113.056851217901,0,-213.647726882651,0,1.08689987598767,0,0,-0.0127043886501644,0,2912.5,0,-500,-30,0,-3.67394039744206e-15,0,0,3.14159265358979,0,0,0,0,-1.10499957255873,2637.9610598808
2.925,275.924646455053,0,-549.510092279911,113.045965978418,0,-213.572451292069,0,1.08679438002604,0,0,-0.0127127664003424,0,2912.25,0,-500,-30,0,-3.67394039744206e-15,0,0,3.14159265358979,0,0,0,0,-1.10557724093389,2636.80199210246
2.93333333333333,276.866652186248,0,-551.289551595378,113.03517570602,0,-213.497351461355,0,1.08668882325401,0,0,-0.0127210977799653,0,2912,0,-500,-30,0,-3.67394039744206e-15,0,0,3.14159265358979,0,0,0,0,-1.10615521069397,2635.64423414623
2.94166666666667,277.808568391641,0,-553.068385807288,113.024480094004,0,-213.422426927609,0,1.08658320397857,0,0,-0.0127293911987854,0,2911.75,0,-500,-30,0,-3.67394039744206e-15,0,0,3.14159265358979,0,0,0,0,-1.1067334804855,2634.48778558091
2.95,278.750395857764,0,-554.84659637174,113.013878875239,0,-213.347677212179,0,1.08647752043444,0,0,-0.0127376546460237,0,2911.5,0,-500,-30,0,-3.67394039744206e-15,0,0,3.14159265358979,0,0,0,0,-1.1073120488799,2633.33264598923
2.95833333333333,279.692135368865,0,-556.624184741011,113.003371797476,0,-213.273101830487,0,1.08637177082917,0,0,-0.0127458959527564,0,2911.25,0,-500,-30,0,-3.67394039744206e-15,0,0,3.14159265358979,0,0,0,0,-1.10789091442035,2632.17881495919
2.96666666666667,280.633787709185,0,-558.401152367371,112.992958608493,0,-213.198700297945,0,1.08626595337026,0,0,-0.012754122949774,0,2911,0,-500,-30,0,-3.67394039744206e-15,0,0,3.14159265358979,0,0,0,0,-1.10847007564998,2631.02629207877
2.975,281.575353662107,0,-560.177500701192,112.98263906245,0,-213.124472127482,0,1.08616006626236,0,0,-0.0127623433651847,0,2910.75,0,-500,-30,0,-3.67394039744206e-15,0,0,3.14159265358979,0,0,0,0,-1.10904953110851,2629.87507693823
2.98333333333333,282.516834006142,0,-561.953231182109,112.972412949626,0,-213.050416817991,0,1.08605410769396,0,0,-0.012770564346037,0,2910.5,0,-500,-30,0,-3.67394039744206e-15,0,0,3.14159265358979,0,0,0,0,-1.10962927931638,2628.72516914052
2.99166666666667,283.458229518091,0,-563.728345245982,112.962280072986,0,-212.97653386343,0,1.08594807584791,0,0,-0.0127787928352153,0,2910.25,0,-500,-30,0,-3.67394039744206e-15,0,0,3.14159265358979,0,0,0,0,-1.11020931878726,2627.57656829307
3,284.399540974754,0,-565.502844328667,112.952240235511,0,-212.902822757751,0,1.08584196890703,0,0,-0.0127870357753805,0,2910,0,-500,-30,0,-3.67394039744206e-15,0,0,3.14159265358979,0,0,0,0,-1.11078964803482,2626.42927400328
3.00833333333333,285.340769152212,0,-567.276729863888,112.942293246185,0,-212.829282992673,0,1.08573578506073,0,0,-0.0127952999762196,0,2909.75,0,-500,-30,0,-3.67394039744206e-15,0,0,3.14159265358979,0,0,0,0,-1.11137026557864,2625.28328588079
3.01666666666667,286.281914822771,0,-569.050003274126,112.932438945603,0,-212.755914048142,0,1.08562952253313,0,0,-0.0128035915470089,0,2909.5,0,-500,-30,0,-3.67394039744206e-15,0,0,3.14159265358979,0,0,0,0,-1.11195116996966,2624.13860354678
3.025,287.222978757497,0,-570.822665978173,112.922677184732,0,-212.682715400243,0,1.08552317955974,0,0,-0.0128119163672401,0,2909.25,0,-500,-30,0,-3.67394039744206e-15,0,0,3.14159265358979,0,0,0,0,-1.11253235976907,2622.99522662621
3.03333333333333,288.163961727455,0,-572.594719394822,112.913007814545,0,-212.609686525058,0,1.08541675437607,0,0,-0.0128202803162698,0,2909,0,-500,-30,0,-3.67394039744206e-15,0,0,3.14159265358979,0,0,0,0,-1.11311383353806,2621.85315474408
3.04166666666667,289.104864503133,0,-574.366164940488,112.903430691393,0,-212.536826896813,0,1.08531024523357,0,0,-0.0128286891152086,0,2908.75,0,-500,-30,0,-3.67394039744206e-15,0,0,3.14159265358979,0,0,0,0,-1.11369558985304,2620.71238752749
3.05,290.045687852186,0,-576.13700401994,112.893945698,0,-212.464135980622,0,1.08520365046187,0,0,-0.0128371477089059,0,2908.5,0,-500,-30,0,-3.67394039744206e-15,0,0,3.14159265358979,0,0,0,0,-1.11427762736498,2619.57292461413
3.05833333333333,290.9864325414,0,-577.907238034382,112.884552725164,0,-212.391613238809,0,1.08509696841457,0,0,-0.0128456608045712,0,2908.25,0,-500,-30,0,-3.67394039744206e-15,0,0,3.14159265358979,0,0,0,0,-1.11485994474772,2618.43476564489
3.06666666666667,291.927099337563,0,-579.676868385014,112.875251663686,0,-212.3192581337,0,1.08499019744525,0,0,-0.012854233109353,0,2908,0,-500,-30,0,-3.67394039744206e-15,0,0,3.14159265358979,0,0,0,0,-1.11544254067506,2617.29791026068
3.075,292.867689007011,0,-581.445896470425,112.866042408897,0,-212.247070126258,0,1.08488333593251,0,0,-0.0128628691521565,0,2907.75,0,-500,-30,0,-3.67394039744206e-15,0,0,3.14159265358979,0,0,0,0,-1.11602541384502,2616.16235810451
3.08333333333333,293.808202314016,0,-583.214323677255,112.856924876831,0,-212.17504867123,0,1.08477638236925,0,0,-0.0128715726472862,0,2907.5,0,-500,-30,0,-3.67394039744206e-15,0,0,3.14159265358979,0,0,0,0,-1.11660856306613,2615.02810882909
3.09166666666667,294.748640022264,0,-584.982151388734,112.847898989437,0,-212.103193221589,0,1.08466933528104,0,0,-0.0128803470764692,0,2907.25,0,-500,-30,0,-3.67394039744206e-15,0,0,3.14159265358979,0,0,0,0,-1.11719198717848,2613.89516208989
3.1,295.689002895437,0,-586.749380988092,112.83896466866,0,-212.031503230308,0,1.08456219319341,0,0,-0.0128891959214152,0,2907,0,-500,-30,0,-3.67394039744206e-15,0,0,3.14159265358979,0,0,0,0,-1.11777568502217,2612.76351754238
3.10833333333333,296.629291696875,0,-588.516013855709,112.830121839943,0,-211.959978149598,0,1.08445495466517,0,0,-0.012898122472683,0,2906.75,0,-500,-30,0,-3.67394039744206e-15,0,0,3.14159265358979,0,0,0,0,-1.11835965546961,2611.63317484415
3.11666666666667,297.569507188438,0,-590.282051359836,112.821370443619,0,-211.888617428433,0,1.08434761839672,0,0,-0.0129071292067404,0,2906.5,0,-500,-30,0,-3.67394039744206e-15,0,0,3.14159265358979,0,0,0,0,-1.11894389753091,2610.50413366178
3.125,298.509650131594,0,-592.047494865494,112.81271042398,0,-211.817420514927,0,1.08424018312616,0,0,-0.0129162183833695,0,2906.25,0,-500,-30,0,-3.67394039744206e-15,0,0,3.14159265358979,0,0,0,0,-1.11952841025283,2609.37639366423
3.13333333333333,299.449721287812,0,-593.812345737706,112.804141725321,0,-211.746386857191,0,1.08413264759158,0,0,-0.0129253922623505,0,2906,0,-500,-30,0,-3.67394039744206e-15,0,0,3.14159265358979,0,0,0,0,-1.12011319268212,2608.2499545205
3.14166666666667,300.389721418287,0,-595.57660533842,112.795664294259,0,-211.675515903255,0,1.08402501057093,0,0,-0.0129346529085108,0,2905.75,0,-500,-30,0,-3.67394039744206e-15,0,0,3.14159265358979,0,0,0,0,-1.12069824390438,2607.12481590168
3.15,301.32965128314,0,-597.340275017388,112.787278086629,0,-211.604807100819,0,1.08391727100043,0,0,-0.0129440016128465,0,2905.5,0,-500,-30,0,-3.67394039744206e-15,0,0,3.14159265358979,0,0,0,0,-1.12128356315947,2606.00097748737
3.15833333333333,302.26951164222,0,-599.103356121333,112.778983060555,0,-211.534259897502,0,1.08380942785553,0,0,-0.0129534394743798,0,2905.25,0,-500,-30,0,-3.67394039744206e-15,0,0,3.14159265358979,0,0,0,0,-1.12186914972549,2604.87843895929
3.16666666666667,303.20930325538,0,-600.865849996982,112.77077917416,0,-211.463873740923,0,1.0837014801117,0,0,-0.0129629675921296,0,2905,0,-500,-30,0,-3.67394039744206e-15,0,0,3.14159265358979,0,0,0,0,-1.12245500288057,2603.75719999912
3.175,304.149026882238,0,-602.627757987776,112.762666386634,0,-211.39364807934,0,1.08359342678926,0,0,-0.0129725868743751,0,2904.75,0,-500,-30,0,-3.67394039744206e-15,0,0,3.14159265358979,0,0,0,0,-1.12304112194657,2602.63726029076
3.18333333333333,305.088683281555,0,-604.389081425002,112.754644661122,0,-211.32358236339,0,1.08348526707447,0,0,-0.0129822975237119,0,2904.5,0,-500,-30,0,-3.67394039744206e-15,0,0,3.14159265358979,0,0,0,0,-1.12362750640724,2601.51861952627
3.19166666666667,306.028273211893,0,-606.149821637141,112.746713961681,0,-211.253676044254,0,1.08337700019195,0,0,-0.0129920995795742,0,2904.25,0,-500,-30,0,-3.67394039744206e-15,0,0,3.14159265358979,0,0,0,0,-1.12421415578378,2600.40127739956
3.2,306.967797431813,0,-607.909979952672,112.738874252369,0,-211.183928573115,0,1.08326862536635,0,0,-0.0130019930813773,0,2904,0,-500,-30,0,-3.67394039744206e-15,0,0,3.14159265358979,0,0,0,0,-1.12480106959739,2599.28523360455
3.20833333333333,307.907256699646,0,-609.669557696595,112.731125497031,0,-211.11433940254,0,1.08316014187036,0,0,-0.013011977889646,0,2903.75,0,-500,-30,0,-3.67394039744206e-15,0,0,3.14159265358979,0,0,0,0,-1.12538824741613,2598.17048783748
3.21666666666667,308.846651772915,0,-611.428556181907,112.723467658784,0,-211.04490798987,0,1.08305154914252,0,0,-0.0130220532478522,0,2903.5,0,-500,-30,0,-3.67394039744206e-15,0,0,3.14159265358979,0,0,0,0,-1.12597568896988,2597.05703980252
3.225,309.785983408975,0,-613.18697671902,112.715900700589,0,-210.975633793471,0,1.08294284665708,0,0,-0.013032218266521,0,2903.25,0,-500,-30,0,-3.67394039744206e-15,0,0,3.14159265358979,0,0,0,0,-1.12656339402331,2595.94488920557
3.23333333333333,310.725252365177,0,-614.944820618345,112.708424585405,0,-210.906516271714,0,1.08283403388832,0,0,-0.0130424720561273,0,2903,0,-500,-30,0,-3.67394039744206e-15,0,0,3.14159265358979,0,0,0,0,-1.12715136234114,2594.83403575252
3.24166666666667,311.664459398598,0,-616.702089186638,112.701039274735,0,-210.83755488508,0,1.08272511035968,0,0,-0.0130528135679681,0,2902.75,0,-500,-30,0,-3.67394039744206e-15,0,0,3.14159265358979,0,0,0,0,-1.127739593736,2593.72447915172
3.25,312.603605265425,0,-618.458783718892,112.693744725391,0,-210.768749100844,0,1.08261607575279,0,0,-0.0130632412412158,0,2902.5,0,-500,-30,0,-3.67394039744206e-15,0,0,3.14159265358979,0,0,0,0,-1.12832808817468,2592.61621911942
3.25833333333333,313.542690721664,0,-620.214905507742,112.686540893248,0,-210.700098387646,0,1.08250692978106,0,0,-0.0130737534122518,0,2902.25,0,-500,-30,0,-3.67394039744206e-15,0,0,3.14159265358979,0,0,0,0,-1.12891684565489,2591.50925537346
3.26666666666667,314.481716523323,0,-621.970455845819,112.679427734177,0,-210.63160221413,0,1.08239767215792,0,0,-0.0130843484173668,0,2902,0,-500,-30,0,-3.67394039744206e-15,0,0,3.14159265358979,0,0,0,0,-1.12950586617441,2590.40358763167
3.275,315.420683426047,0,-623.725436021942,112.67240520144,0,-210.56326005173,0,1.08228830264487,0,0,-0.0130950244603876,0,2901.75,0,-500,-30,0,-3.67394039744206e-15,0,0,3.14159265358979,0,0,0,0,-1.13009514977772,2589.29921561454
3.28333333333333,316.359592184388,0,-625.479847313488,112.665473240468,0,-210.495071380271,0,1.08217882114775,0,0,-0.0131057793474098,0,2901.5,0,-500,-30,0,-3.67394039744206e-15,0,0,3.14159265358979,0,0,0,0,-1.13068469664969,2588.19613905052
3.29166666666667,317.298443552694,0,-627.233690995692,112.658631795226,0,-210.427035681147,0,1.08206922759938,0,0,-0.0131166108101904,0,2901.25,0,-500,-30,0,-3.67394039744206e-15,0,0,3.14159265358979,0,0,0,0,-1.13127450700139,2587.09435766954
3.3,318.237238285312,0,-628.986968343788,112.651880809677,0,-210.359152435753,0,1.08195952193264,0,0,-0.0131275165803627,0,2901,0,-500,-30,0,-3.67394039744206e-15,0,0,3.14159265358979,0,0,0,0,-1.13186458104397,2585.99387120154
3.30833333333333,319.175977136099,0,-630.73968062906,112.645220224174,0,-210.291421128887,0,1.08184970412524,0,0,-0.0131384942894718,0,2900.75,0,-500,-30,0,-3.67394039744206e-15,0,0,3.14159265358979,0,0,0,0,-1.132454919032,2584.89467937935
3.31666666666667,320.114660857528,0,-632.491829111726,112.638649968949,0,-210.223841254873,0,1.08173977428062,0,0,-0.0131495412884232,0,2900.5,0,-500,-30,0,-3.67394039744206e-15,0,0,3.14159265358979,0,0,0,0,-1.13304552134185,2583.79678194389
3.325,321.053290201835,0,-634.24341505008,112.632169972474,0,-210.156412309695,0,1.08162973252408,0,0,-0.0131606548793048,0,2900.25,0,-500,-30,0,-3.67394039744206e-15,0,0,3.14159265358979,0,0,0,0,-1.1336363883711,2582.70017863751
3.33333333333333,321.991865921253,0,-635.994439702408,112.625780163213,0,-210.089133789344,0,1.08151957898102,0,0,-0.0131718323640778,0,2900,0,-500,-30,0,-3.67394039744206e-15,0,0,3.14159265358979,0,0,0,0,-1.13422752051738,2581.60486920255
3.34166666666667,322.930388767356,0,-637.744904322929,112.619480465217,0,-210.022005193714,0,1.08140931381643,0,0,-0.0131830709811562,0,2899.75,0,-500,-30,0,-3.67394039744206e-15,0,0,3.14159265358979,0,0,0,0,-1.1348189182165,2580.51085338452
3.35,323.868859489993,0,-639.494810155221,112.613270790981,0,-209.955026032915,0,1.08129893729912,0,0,-0.0131943678024486,0,2899.5,0,-500,-30,0,-3.67394039744206e-15,0,0,3.14159265358979,0,0,0,0,-1.13541058200422,2579.41813093724
3.35833333333333,324.807278838732,0,-641.244158441135,112.607151051128,0,-209.888195818715,0,1.08118844971469,0,0,-0.0132057198729253,0,2899.25,0,-500,-30,0,-3.67394039744206e-15,0,0,3.14159265358979,0,0,0,0,-1.13600251243249,2578.32670161585
3.36666666666667,325.74564756314,0,-642.992950422512,112.601121156267,0,-209.821514062893,0,1.08107785134886,0,0,-0.0132171242374843,0,2899,0,-500,-30,0,-3.67394039744206e-15,0,0,3.14159265358979,0,0,0,0,-1.13659471005334,2577.23656517553
3.375,326.683966411924,0,-644.74118733703,112.595181012029,0,-209.754980281505,0,1.08096714251997,0,0,-0.0132285779164354,0,2898.75,0,-500,-30,0,-3.67394039744206e-15,0,0,3.14159265358979,0,0,0,0,-1.13718717544994,2576.14772137492
3.38333333333333,327.622236131694,0,-646.488870412166,112.589330511852,0,-209.688594001093,0,1.0808563236264,0,0,-0.0132400778698442,0,2898.5,0,-500,-30,0,-3.67394039744206e-15,0,0,3.14159265358979,0,0,0,0,-1.13777990928175,2575.06016998117
3.39166666666667,328.56045746874,0,-648.236000873865,112.583569547341,0,-209.622354749774,0,1.08074539507858,0,0,-0.0132516210487189,0,2898.25,0,-500,-30,0,-3.67394039744206e-15,0,0,3.14159265358979,0,0,0,0,-1.13837291221968,2573.97391076276
3.4,329.49863116935,0,-649.982579948055,112.577898010078,0,-209.556262055683,0,1.08063435728701,0,0,-0.0132632044041289,0,2898,0,-500,-30,0,-3.67394039744206e-15,0,0,3.14159265358979,0,0,0,0,-1.13896618493475,2572.88894348812
3.40833333333333,330.43675797873,0,-651.728608856413,112.572315786364,0,-209.490315451474,0,1.08052321068657,0,0,-0.0132748249018555,0,2897.75,0,-500,-30,0,-3.67394039744206e-15,0,0,3.14159265358979,0,0,0,0,-1.13955972812075,2571.80526792956
3.41666666666667,331.374838639611,0,-653.474088810877,112.566822750389,0,-209.424514480161,0,1.08041195576801,0,0,-0.013286479541411,0,2897.5,0,-500,-30,0,-3.67394039744206e-15,0,0,3.14159265358979,0,0,0,0,-1.14015354252371,2570.72288386808
3.425,332.312873894374,0,-655.219021022026,112.561418774655,0,-209.358858686203,0,1.08030059302988,0,0,-0.0132981653270157,0,2897.25,0,-500,-30,0,-3.67394039744206e-15,0,0,3.14159265358979,0,0,0,0,-1.14074762889694,2569.64179108595
3.43333333333333,333.250864485397,0,-656.963406700414,112.556103731633,0,-209.293347614086,0,1.0801891229708,0,0,-0.0133098792631824,0,2897,0,-500,-30,0,-3.67394039744206e-15,0,0,3.14159265358979,0,0,0,0,-1.14134198799382,2568.56198936543
3.44166666666667,334.188811153735,0,-658.707247052271,112.550877488478,0,-209.227980812909,0,1.08007754610458,0,0,-0.0133216184068458,0,2896.75,0,-500,-30,0,-3.67394039744206e-15,0,0,3.14159265358979,0,0,0,0,-1.14193662058128,2567.48347849296
3.45,335.126714637612,0,-660.450543274542,112.545739900933,0,-209.162757841676,0,1.0799658629776,0,0,-0.0133333799274847,0,2896.5,0,-500,-30,0,-3.67394039744206e-15,0,0,3.14159265358979,0,0,0,0,-1.14253152745526,2566.40625826392
3.45833333333333,336.064575674883,0,-662.193296562975,112.540690823264,0,-209.097678260674,0,1.07985407414046,0,0,-0.0133451610091442,0,2896.25,0,-500,-30,0,-3.67394039744206e-15,0,0,3.14159265358979,0,0,0,0,-1.14312670941548,2565.33032847487
3.46666666666667,337.002395003393,0,-663.93550811328,112.535730109702,0,-209.032741630222,0,1.07974218014381,0,0,-0.0133569588364953,0,2896,0,-500,-30,0,-3.67394039744206e-15,0,0,3.14159265358979,0,0,0,0,-1.14372216726169,2564.25568892239
3.475,337.940173359421,0,-665.677179116777,112.530857609389,0,-208.967947515209,0,1.07963018154397,0,0,-0.0133687706804534,0,2895.75,0,-500,-30,0,-3.67394039744206e-15,0,0,3.14159265358979,0,0,0,0,-1.14431790179758,2563.18233940757
